P5
80 120
255
geeeeeeeeeecccccccceeeeegggkknpnstvy‚‚„„‡ˆ””•—™™œœŸŸŸ¡¡¡¡¡¡¡¡¥¥¥¥¥¥¥¥§§§§§eeeeegeeceecccceeceeeggehgghmnpsswwy‚„‡‡ŒŒ””—™œœžŸŸ¡¡¡¤¢¥¢¥¥¥¢¢¥§¥¥§§§§§¨¨effeeeeeeece_`cccceeeeeghhhkkppsuwwy‚‚„‡‡‰‰ŒŽ‘‘”——œŸ¡¡¥¥¥¥¥¥¥¥§§¨¨§§¨¨¨««««eeeeecc``__`__`_`_ceeeghhkkkknpsttwyy||ƒƒ†‰‰ŒŽ‘‘”—™œŸ¤¤¥¥¥¥¥¥§§§«««¨¨«««««eeeee````__]]]]]]__ceegghkkkknpttvvvvvwyyyz{|~ƒ†‡‰Œ––™œ¡¡¥¥¥¥§§§§««ªª«««««««eeeee```]]]]X[X[]]_`ceeghhhkknpnsqqqqttqtttvvvyy{~†‡ŒŽ””—žŸ¡¤¥§§§¨¨¨«ªª«««««««eeeee``_]ZXXXUUV[X]]`ceghhkkmppnnnnnlnnllnnnnnppsuyy~ƒ‡Œ”™™Ÿ¡¥¥§§«««««««««««««eeeee___ZZWURRUUVXZ__ceghhkkmnnnknhihffccccfffffklnssv{„‰”™œž¡¤¥¥§§««««««­­«««eeeee_]]XXRPNMNPUUXZ`ceehkmkkkkkkhfcaa_^^[[[[[^^`bcflnsv|‡Ž‘–™ž¤¥¥ªª««««­­«­­«­eeee_]]XWRPMHHHMPRUZZ`cchkkmkkhffb`^^YYWVVSSSSVVWX[^cfkptv‡‹‘–œŸŸ¥§«««­­­­«­««­eeee_]XWUPMHHFFFJPUWZ^cchkkkjeed^^^YVQQOONNIIKKLOPSVY[`hlpv‡‰‘—œ¡¡¥§««««««­­­­­eecc`]XVPNMF@==EHNPUZ`cehkkjeec`^ZVSQNIGGFCAACCFGGINPQY^cknv†Œ‘™œ¡¥§««««««­­­­­eecb_]XUPMHA===@FHPRZZ`cghhecc`]ZVROKGFC>=>=@CCCCCCCGKOV[`hnv‡Ž”™Ÿ¤§««««««­­­­­eee__XXPNHE=:88=AHNSX]`cgjge``ZXVPKICA;:::AACCFFFFFCCFGPSX`kpy‰‘—ž¡¥¨««««­­­­­­eeec]ZXRKF@:755;AHNPX]`cggec^ZXURKHCA;88:AADIKKNNLKGCCCHKS[clt|†Ž–™Ÿ¤¥ª««­­­­­­­feec]ZURJF@;555;=FNPXZ`chee`ZZVRMFC>:88:ACINQSSVSSQOKDCCCKS^fnv‡‘™ž¡¥§«­­­­­­­­gggc_ZUPHF@;5558=FNUXZ`cccc_ZXRPHC@:58:ACKQSWYY[[[[VOKICAGOXafsy‹”™¡¥§««««­­­­­ggec_ZUPHF@;5558=FMUWZ`ccc`]XUPJB@:778=CKQY[^aaaaa`YVQKICCIQ[clv‰‘™¡¢§««­­­­­­¯gggc_ZWPJF=;5257=EMRW]bccb]ZURMHB=756:AIOV[aahiiigc`[VRKFCFKW`hs{ƒŽ”œ¡¥¨«­­­­­­²gggc_XUPMF=;5227=GMRW]_bb_]XRPJB@;556=CNS[aflnssspkf`[VOICCIS^hpy‰”œ¡¦§ª«­­­­¯¯eggc_XVRMH@:555:@HMPXZ_bbb]XRNH@=6558AISY`hnsvvyyvslf`ZSKGCFPXclt‡‘™Ÿ¤§ª««­­­­¯gggd_[VRMF@:555;=FNPXZ_``_ZUPJF@;658:CKV^fltv~~vskf^XPKCAIV`ht~†Ž–ž¡§©­­­­­­­gggbbZXPMF@:222;=EMPXZ_bb]YUNHE@7558>GQYalpy†‡ˆ†ƒ~vsh`[SKFCIQ^hpyƒ‹”œ¡§§­­­­­­­gggc_ZWPJF@:555;=FMUXZ___]YUNJB:7228AIQ[clt|„‰ŽŽ‰‡|vlc[VNFCGP^fnv‹–œ¡§§­­­­­­¯gggebZWPJF@:525:=HJRX]]__]YRNHB=722:CKV[hnv‰‘”‘‰†ynf`XNFCGNYclv‰”œ¡¥§§­­­¯¯¯gggebZWRJE@:5557@FMRY]]__]YRNHB:725:CNV`hpyƒ‹”––”Ž‰ƒ~sk`XSKCCNYblu~‹“œ¡¥§§­­­­¯­gggebYWRJF@:5557@FMRW]]]]ZWRNHB:727:CNV`hp|ƒ‹”—˜”‹†~skc[SKCCNWbku~ˆ‘™ ¥§§­­­­¯­gggeb]WRJF@;555:=FNRXZ]]]ZWRJHB:727:CNW`ls{ƒŽ”—œ–‘‹†vmc[VICCNX`ku~‰‘™ ¥§«­­­¯¯¯ggeebZXRMF@<525;=FKPXZ]__]WRJH@8627=FOYbks†Ž”™œ—”‹‰ync[VNCCKVbks~ˆ‘™¡¥§ª­­­­­¯gggeb]WPMH@<525;@FKPX]___]WRMHB:727@FOYbkv‡Ž–˜œ—”‹‰ƒ{ph^VNFCIV`hp{†‘™¡¡§­­­¯¯¯¯ggggb]XRMF@<5557@HJRXZ]__]WRMH@:728@FOYbmy†Ž–œœ™”‹ƒ~ph`VNFFKV^hs{†Ž˜ ¡§­­­­¯¯¯ggggb]XROH@;525:?HJRWZ]]]]WQMH@:728AIPXblx†–™œœ–Ž‹ƒ~si`XPFFJU^kp{ƒŽ™¡¡§­­­­¯¯¯jggec]YRMH@;5227@HMRWZ]]]]WRMH@:756:IPXclu‡–™œœ–Ž‹ƒ|sk`XPFFKV`hp{ƒ–ž¡§ª­¯¯¯¯¯jggeb]YRMHB<5257=FMRXZ]]]]YRMHB:756=HPYbjw‡Ž–œž›–Ž‹ƒ~uk`XPGFKS`hpyƒŒ–ž¡§ª­­¯¯¯¯ghgeb]YRMGB<5557@FMRXZ]]]]YRMHB:756@HPYbmv~‡Ž”™œ˜–Ž‹†€skbYPGFKS^hs{ƒŽ–ž¡§ª­­¯¯¯¯jjgeb]YROHB<7557@FMRYZ]]_]WRMHB:758@HPXbkv~‡”œž™”Ž‹ˆ€skbZRFFKS[hs{ƒ‹˜œ¡§ª­¯¯¯¯¯jjgeb]YUOHB:544:=FMRX]]]_]WRMH@=75;>FPXbkx€†–œž˜–‹†ukbZRFFIQ^hpyƒ‹˜œ¤©©¬­¯¯¯¯kjjeb_YUOHB9755:=FMRX]]__]YRMHB=858=FNV`kx€†Ž•™œ™–Ž‹‡ukbZRGFIQ]hpyƒ‹˜ ¡¦ª¬­¯¯¯¯jjjeb_YUMIB9755;=FMRW]]__]WRMHB:557@HNV`kx€†Ž–™œ™–‘‹‡xkbZRIFIQ]fmyƒ‹–œ¡¦ª­¯¯¯¯¯jjjgb]XROIB97558=GMRXZ]__]WRMHB:557:CNX^ks{†‹‘—›˜–‰‡wkbXPIFIQZfnv‹”œ¡§­­­­¯¯¯ljjgb_YROH@=7458?FMUY]]bb]XRMH@9755:CNV`ks{ƒ‹‘—™™–‹†ymbYQGFISXfnv‹”ž¡§­­­­¯¯¯jjjgb_ZUOHB=7157?HMRY]]bb]WRMHB9727:CNV`hs{ƒ‹‘–™™–‹†ykbYQIFKSYfnvŒ–ž¡©¬¬­­¯¯¯jkkge_ZUOJE=755:=FMRY]]bb]YROHB=727:CNV[hs{ƒ‹‘–™™–‘‹†ylc[SKFIS[fnv‹˜ž¡¦¬­­¯¯¯¯ljjge_ZUOHE@755:=EMRX]_bb]YUOHB9727:CKS[hpyƒ‰–™™–‹‡€xnc[SKCIS[fnv€‹–ž¡¦©©¯¯¯¯¯jjjge_YWOHB=7557?GMRX]___]YUOJB:725:AKS[cpy‰‘–™™–‹†€vjb[SICIQ[cnv€Ž–œ¡§©©¯¯¯¯¯kjjje_YUPHB=7557@HMRX]___]YUOJB:722:AIS[fnvƒ‡–™™“Ž‰†€vmb[SIFHQ[cnvŽ–ž¡©ªª¯¯¯¯²mjjjc_ZUPHB=755:=FMRX]___]ZUOJB=722:CIS[cnv‡‘˜™“Ž‹†€xnc[SICHQYcnx€‹–ž¡©©ª­¯¯¯¯mkkjd_ZUQJB=755:=FMRW]]__]ZUNJB:7228AIQYckv‡‘“—“‰†~vnc[SIFHQZcmv€‹“›¡¥©ª©¯¯¯²mmkje`ZWQJB@7557=EJRW]]__]ZUMHB:7228AIQ[ckt„‘“““‹ˆ~vjb[SIFGOZcmv€‹“›¡¤©ª­¯¯¯²mmkjd`ZWQJE@7557@EJRW]]__]ZUMHB97228AGOYciv|„‹‘–“‘‰†wjb[SIFGNXbmv~ˆ”œ¡¤©©­­¯¯¯omkjdbZWQJE@7559@HJRW]___]ZUPHB=7228AGOYclt|„‹‘““‘‰†wkc[SIFGNXbju~Š”œ¡¤©©¬­¯¯¯mljjd_\WPJE@7557@HJQW]]__]WUOHB97228@IOYaiq|„‰‘“™“Šˆwnc[SKFHNVcju~‹“›ž¤©©¬­¯¯²mmjjd_\WRJE?7557@HJRW]]___WUMJB97228@IOYaiq|„Š‘”—“ŽŠˆypb[SKFHNVbmu~ˆ“›ž¦§­¬­¯¯²lljje_]WQJE<755:@HJRY]]___\UPHB=7228AIOYait|„‹‘””“Šˆync^SKFHNVbks~‰”œ ¤§¬¬­¬²¯lmjjeb]WQJE@:55:@EMRW]]_b_\UPHB@7558AGOYakt|„‹‘“““ˆype^VNHHNXbks{‡”œŸ¤©©­¯²²²lmmjgb]WQMG@755:@GORX]___]YUOJB@9228@GOYalt|„‹‘“˜–‰†ypg^VNHHNXbku{†”–Ÿ¤©©ª¯¯¯²mmmjfb]YRMG?<777@GMRX]___]\UOJE=9225=HPYalt|„‰‘“–“‹ˆypf^VNHHNX`ku{ˆŽ˜ž¤©©­­­­¯mmmlfb]WRJG@9777@FJRU]__b]\UPJE=9225=GOYait|„‰‘–™–‹ˆyph^VNIHNX`ks{†Ž˜ž¦©©¬­­­­mmmkeb]WQJH@9757@FNRX]]___]WOJE:7226>GOYait|ƒŠ‘“—–‹†yph^VNEHPV`hs{†Ž–ž¦§¬¬¬­¯­mnllgd]YQMG@<779@HJRU]]___]WOJB:8228;GOWait|„‰‘“—–’‹‰ƒ{ph^VOGHPV^hp{ƒŽ–ž¤§¬©¬­­­mmmlgb]YQJE@<759@CKUW\__a_\UQJB:8228;GOYait|„‰‘“—–’‹ˆƒ{sf^VOGHPX`hp{†Ž–ž¤§©ª­­­­mmmleb]YRMEA9759@FKRY]__d_\WOJE=7228=GOYaiq|„‹‘“—–“ŽŠ~sh^VPHHKV^hp{†Ž–ž¤§©ª­¯¯¯lmmlgb]YRME?8777@HNRY]_ad_YWQME@9228;GOWait„‹‘“—–“Š~sj^VPHFKV^hp{ƒŽ˜ž¤§©¬­­­¯momjgd]YUME@9778@HNUW]____YWOJE@8226>GOWakt‹‘“—–“‰†~sj^VPKFNV^hp{ƒŽ˜ž¤§©¬¬­­­mmmjgb_YUMGB977:@HMRX]_aa_\WOJE=:226=FNW_kt„‹‘“—–“‘‰†~sj`XPIFKV^hpwƒŽ–ž¤§©¬¬­­­mnnlgd_ZUMGB9779@EMRX]_ab_\WUKF=9526=FNWakt„‹“–™–’‘‰†~sj`XNKFKV^hpyƒ‹˜œ¤§¬¬­­­­monlgd^YTMHB9779@FMRX]_`b_ZWRKF=9526=GOW_kt|„‹“—™–“Ž‰†~sj`ZOIIKV^hpyƒŽ–ž¡¥©¬­¬¯®ooomgd^WUMEB9779@HNUX]_bb_YWRMF@9527=GQW_kt|‡‹“——–“‘‹†~vjbZQIIKU^hpyƒŽ–ž¡§©©¬­­­roomjd_XUOGB9779@FNUX__bba_WRME@:556=FQWakt‡‹“—œ–“‹‡wjc[SKIKS^hpy‹–ž¡§©¬¬­­­ooomje_]UOIB9779@FNRZ__bba_XRME=9556>FQXakw‡‹“—™––‹†vj`[SKIKV^hpv~‹“ž¡§§¬¬¬­­ooonje_ZUMHB9979@EMRZ__aaa]XRJH=:756>IQYakw‡“™™œ˜‹‡tk`[SKINV^hpx€‰–ž¡§§©¬¬­¯ooolge_]UNHB9779=EMRZ_aaaa_XRMH@:778>IQYakt€ˆŽ–œœœ–Ž†yjc^SKIKS^fny‹“œ¡¥©©­¬¬¯roomge_YTMJB9999@EMRX]caaa_YROG@:558>IQYcmw€ˆŽ–˜ž›–“ˆymf^SKIKS[fnx€Š’œ¡§§­­­­­ooomje_YUMJB<999@EMRX]`aaaaYROG@:558>HPYcmw€ˆ‘“›žœ˜“‰ynf^VKIOV^fnx€‹“œ §§©­­¯¯ooomle_ZUMJB=77:@FNRX_aaaa_YUOG@=758>HPYanw‡‘˜›œœ™“‰ynf^SKKKS^fnx€‹“œ ¥§©¬¬¬­ooomje_]WPHE=77:@FKRX_baab_ZUPHA=668=FOYcnw‰‘–™œœ›“‰{nf^VNKKS^cnv‰‘œ §§©¬¬¬®ooomjg_\WOIE=77:@FMRX_aaaa_ZRPHC=668@ENZcnw‰“—™žž›’‹†{pf`VNKKS[fnw‰‘œ ¤©©­­­¯ooomjg_YWOJF=:89@FMUX_aaea_ZUPJA=868AESZcnw‹“—œžœ›–’Ž†{sh`VPKNS[bjw‹“™ ¥©©ª¬­¯oommlg_ZWPJB@:87@FJTW_aeeb]ZWPHA=868>ES[cnw‰“–œžœœ˜’Ž†~pf`XPKQV^bjv‰“œ ¥©©ª©­­oooolga]WPJB=:9:=FNUX_aeebbZXPJC@:68>FQ[cnwƒ‹‘–œžœœ–“Ž†~ph`XPNNS[bjv~‰“œ ¥©©ª­­­ooomlga]WPJE@:9:=EMUZ_beeeaZXRJC@888>HQYcnyƒ‹‘˜œžžœ™“Ž†~ph`XPNNS[bjv~‰“œ ¤©©©­­¯ooomlga]WPHF@:9:=FNUX_bggeb]VRJC@888@HPXcnyƒ‹“™œ  œ—‘Ž†~sh`XPNNS[bmv~Š“› ¤©©©­­¯oooojga]WPJF@:9:@FNUZ_bggfb]ZRJFA:68@FOXcny‹“™œ Ÿž˜“‹†~sh`XQNOS[bmv~‰“œž¥©©ª­­¯oooolga]WQIF@:::@FNUZ_eeeeb^ZRMF@:68AEPYcnyƒ‹“›œŸžž›“Ž†~sh`XQNOS[emv~‰“œž¥§©ª­¯¯oooomgaZWQJF@:99@FNVZ_eggge^ZRNHA888AHPYamyƒ‹“›œž œ›“Ž†{sh`YQNOV^ckw‰“™ž¥§©­­¯¯rooolga_WRMFB<99BHPV[`ekkje`]VNIA;8;AENYamy‚‹’›ž  œ˜’‹†{sh`YSOOV^ckwŠ“™Ÿ§©©­­¯¯rooolga_WRMHB=9:@HPXZbfhkhe`^VRIA=8;AFOXajy‰’˜žž ž˜’‹†{sh`XSOOV^fny‹“œŸ¥©¬­­¯¯rtoolga]XUMFB=::AFNX]bhklkhf^ZRIC>88AFQX`jw€ˆ˜œ¡ œ˜‹ƒ{oh`WQNOV^fny‹–œž§©¬­¯¯®trrolja_WRMHB==:AGOX`bhmmmkf`ZSNE@==>HPX`js~ˆ˜œ  œ–ˆ€ync^VQNQV^hpy†Ž˜œ¡§©¬­¯¯¯trroojd_YRNHE===AGOX`bkmmpmhc^VNHA==AHPV^hp~†‹“›œ›˜’Ž†~wmc[VPNQX^jsy†Ž˜ ¤©©©­¯¯¯trromjg_\UMHE===CIQX`hknppnjh^YSKDA=AHPV^hpx€ˆŽ’˜˜“Ž‰yph`[VPNSX`js~†“œ¡¤©©ª­­¯¯rttomjg_YUOJE@==CJSX`hlpsupnhc^VNIA=AENS[bjv~ƒˆŽ’‰†~xph^ZVNNSYajv€‰“œ¡¦©©­¯¯¯²rttrojgaZXPKF@==CNVZbhpsuvupmh`[SKCAAEKS[bhmv~ƒˆ‹ˆˆ†€ysjb^XSNNV[cnyŽ–ž¡©©®­¯¯¯²rttrojgbZWRNFB==FNV[cksvyyyxpkf^VOIAACIQX^fjsy‚€~{sph`^VSPRV`hs~ˆ˜ ¤©©­¯¯¯¯²rttroogb]XRMHB@AFNV^fkty{{{{sph`XSKFCCINVZbhmsy{~{{yvphe]ZSQQSXakvŠ’› ¦©®®­¯¯¯±tuutoogb]XRPHB=AFNV^fnv{|ysnf^XRKEFIKSV^chmpswvvpjhc^XVSNSV^enyŽ˜œ¡¦©®®®¯¯¯±wwstrojb]XRPHCBCGQY`hpy|ƒƒ{snf`XPKHHKQVZ^chjnnpkhfc^XVSPNSYahp~‰’˜¡¤©¬¯¯®¯±±±wwsrrojb`XRPJFCCGQYaipy„†‡†{sjc^VPKKIKSV[^bfhhhfa`[VVSQPRV`hny‚‹–œ¤¦¬¯¯¯¯¯±±±wwwuroje`ZXPKFFFIS[ckty‡‰‹‹†ƒ~ysje]VOKKKNSVY^^``^^^[VVVSQQV[bjv~ˆ˜ž¦©­¯¯¯¯¯±±´wwwwsrjh`ZXSNIFGIS[flv~ƒ‡ŽŽ‹‹ˆ†~ysjb^WQNKNNSSVZZZ[[YVVSSSSVZ^hsy‹–œ¤§©©¯¯¯¯¯±±±wwwwwsmhb`XSPIHINV^fnyƒ‹”‘ŽŽˆ†~{sjh^YSQNNNNRSVSSSVSSSSVV[`hoy‰’›ž¤§©®®¯¯¯¯±±´wzwzwuoke`[VQKKKQX`ft{‡Ž”––”Ž‹ƒ{sjf`[VVSQQSSRRSSSSSSXX^`hpx€ˆ˜ž¡¨§©®¯¯¯¯¯±´´z{z{xurkfb^[XQQQV^cnv{ƒ‹Ž–™™—–Ž‰†{vphb`[[VVVVSSVVVVXZ^`fhpy~†“œ ¤©©®¯¯¯¯¯¯´´·z{{{{wsnkf`^[YVV[bkqy‡‹”–™œœ˜–‘Ž‰†{vrjhe`^]ZZZZX[[^``chkpw†Ž“œ¡¡§©®¯¯¯¯¯¯¯´´·z{{||{usniff`^^^cfnvƒ‰”˜œžœœ™–‘‰ˆƒ~xspmjfebbbbbbcfhhnnt{†‹’˜ž¡§©­¯¯¯¯±¯¯¯±±´{~~~~{ytnoniffefhnv{ˆ‹”–œžžžžž™–“‹ˆ†€~xvppnjjjjjjjnpsvy~†‰’˜œ ¦§©®¯¯¯±±¯¯±±±´{~|yvvppnlnmptyƒŽ“˜™žžž žž™˜“ŽŠˆ€~{ywvssssvvvyy~€ƒˆŽ’˜œ¡¡¦©®¯¯¯¯±¯¯¯¯¯¯´~ƒƒ|{yvtsssy{ƒ‰Ž“–™žž¤¤¤¤Ÿžœ˜––‹‰††~~~{{{{~~€ƒƒˆŠ“˜œ¡¡§©¬¯¯­­¯¯±¯¯¯¯¯±€ƒƒƒ|||yy{~ƒ†‹Ž“–™žžŸ¡¤¤¤¡¡žž›˜–”ŽŽ‹ˆ†††‚ƒƒƒƒ††ˆ‰‰Ž’˜›ž¡¤§§©­¯¯­­¯¯¯¯¯¯¯²¯ƒƒ„‡„„„„ƒƒƒƒƒˆ‹Ž‘–˜œžž¤¤¤¤¤¤¡  žž™˜–’‘ŽŽŽ‹ˆ‹‹ŠŠŠŽ‘‘–˜žž ¤¦§¬­¯¯¯­­¯¯¯¬¬¬¯¯­ƒ„‡‡‰‰‰‰‰‰ˆ†‡‡ˆ‹Ž”“˜˜žž¡¤¡¤¤¤¤¤¤¤¡Ÿžœ˜˜˜––•’•–˜™žž¡¤¦¥§¬¬­­­¯­­¯¯¯¬¬¬®®¬ƒ„‡‡‡‰‰‹‹‹‹‹‹‹‹‘””–™œžžž¡¤¤¤¤¥¤¤¤¤¤¤¡¡žžž˜˜˜˜˜˜˜˜˜˜›œžž¡¤¤¦¦§©¬¬¬­­­­­®¯²­¬¬¬¬ª†‡‡‰ŒŒ‘‘‘‘‘‘””––™™œœž¡ ¡¤¤¤¤¤¥¥¥¥¤¤¤¤¤¤¤  žžžžžžžžžž¡¡¤¦¥¥§§©¬¬­­­­­¬¬®¯¯­¬©©¬©‡‡‡ŠŒ‘”””–––™™œœœ¡¡¡¡¡¤¤¤¤¤¥¥¤¤¥¥¤¤¥¥¥¡¤¤¤¡¡¡¡¡¤¤¤¤¥¥¥¥§©§§­­­­¬¬­­¬¬­­­­©§§©©„‡‰Œ‘’”•—™œœœžžž  ¡¡¤¡¤¤¤¤¤¤¥¥¤¤¤¤¤¤¤¤¤¤¡¡¤¤¤¤¤¤¤¤¥¥¥¥§§©©§©­­¬­¬¬­­­­­­­¬©§§§¦‰‰Œ‘•–—™œœžŸŸ¡¡¡¤¤¤¤¤¤¤¤¤¤¥¤¥¥¤¤¤¤¤¤¤¤¡¡¤¤¤¤¥¥¥¥¥¥¥¥§§§©§©¬¬¬¬¬¬¬­­­­­­©§¥¥¥ ŠŒ‘‘•——œœœŸŸŸ¡¡¡¤¤¤¤¤¥¥¤¤¤¤¤¤¥¥¤¤¤¤¤¤¤¤¤¤¤¡¡¤¤¤¥¥¥¥§§§§§©©©©©©©¬¬¬¬­­­­¬§¥¥¤Ÿ™‘‘”—™™œœœ¡¡¡¡¡¡¤¤¤¥¥¥¥¤¤¤¤¤¤¥¥¤¤¤Ÿ¡Ÿžžžžžž¡¡¡¤¤¥¥¥§§¥§©©©©©©©©¬¬­­­­¬¬©¥¥¡¡ž–‘••™œœœžž ¡¡¡¡¡¡¤¤¥¥¥¥¤¤¥¥¤¤¤¤¤¡žžžœœœœ››œœœž ¡¡¤¤¤¤§©§©©©©©ªª©©ªª­­©©©¥¦¡Ÿœ”‘‘––™™œœœ¡Ÿ¡¡¡¤¤¥¥¥¥¤¤¥¥¥¥¥¥¤¤¤¡Ÿœž›˜––”–”––––˜›žž¤¤¤¤©©¥§§©©©©©©©¬¬­­¬§§§¤žœ”‘