P5
80 120
255
jjjgggeeecccccccccceeceffhhhknnnptttvxy|„‡‡Œ”•—™™™šŸŸŸŸŸ¡¡  ¢¢¢¢¢¢¢¢¢¢¢gggeeeeececccccccceeeeeegghkkkklnnnqttx||ƒ„‡‰ŒŽ”•—™Ÿ  ¢¢¢¡¢¢¢¢¢¢¢¢¢¥¥§§¥gggeeeeccccccccceeeeeffeggghhkkklllnnpptvyyƒ‡ˆŒ‘•—™ŸŸŸŸ ¢¢¢¢¢¢¢¢§§¢¢§§§¥§§§§gggeeeeeeeccceeeeeeggfefhhfggfffhffiilnppttvzƒ‡ŒŒ‘•™œŸ ¢¢¢¢¢¢¢¢¢§§§§§§§¨§§§§¨gffeegeeeeeeeeeeeeeeggeffecccccccddccfgillnpqvy|„‡Œ”—œŸ¢¢¢¢¢¥¥¥¥¥§§§§§¨¨¨¨¨¨¨geeeeeeeeeeeeeeeeeeeggeecc`````^^^^[[_aaaffklnqvy‰‰‘—™Ÿ¢¢¢¢§§¥§§§§§¨§¨¨¨¨¨¨«eeeeceeeeeeeeeeeeeeeeeccc``]ZZZVVWWWWWYY[^^bfflntv{†‰Œ‘——¢¢¢¢§§§§§¨§§¨¨¨¨¨¨«««feeeeeeeeeecceeeeeeeeee`]ZZXVVRSQPPOOOQQSVV[[^cflnsv|‡Œ‘—™ ¢¢¥§¥§¥¨§§¨¨¨¨««¨««feefeeeeeeeeeecggfee```]ZXURRPNKKIGGGGGIINNQQVV[cfknty‡‹‘•šŸ¢¢¥¥¥¥¥¨§«§§¨«««¨««ffffeggeeegeeeegggccb`ZZXRRPJHHFCAA>>AACCGGGKKQSY^cfls{†‹‘—œŸ¡¥¥¥¨¨¨§¨««ªªªª«««heeffggeehhgeeeggecb_ZZXRPPJHCAA>=:::9;:;AACCFGIQVYaclty‡‹‘—Ÿ¥¥¥¨¨¨¨¨««ªª«««««egggeeeeeehggffeecc_]ZVRPJHC@=:88888899:>AAAACCFINSYacltz‡”™ŸŸ¥¥§§«««««««««««­geeggggggegeeffgec`^ZXRPMHB@:876668<<>>AAAACCCCCCGKQW^fls{ƒ‰‘—œŸ¥¥§««««««ª«««««­jgggggggggghhggee`]ZZURMHF==85566;>>DDIIKILKKIIHHCFIOX`flt†Ž”™¡¥¥§«¨«««ª««««««heegghggggggggeec`ZXXRMHF@;86568;>DGILQQQSSSSSOPKICDIQY`hnx‡‘–Ÿ¢¥¥§¨««««««««««hhhggggggggggggec`ZUUOJF@;6666;>CGILQSTWY[[YYYXVQKIIDIQYaks|„‰‘˜¢¥¥§¨¨«««««­­­­ghkgggggghggggec`ZXRPMGC;6526;>CGLQSW[[_aaaaa^^^XSNKIIKV^fnv‰‘— ¥§¨¨¨«««««­«­­ggghhgggghhggge``ZXRMHE=8556;>CINQW[^adfgiilhffa^[VQKIKQYals{„Œ”™Ÿ¢¥¥¨¨ª­«««­««­jggjjhhjjkkjggec_ZVPJF==555;>CIQSY[adiinqqqtpplic_[VSKKNS[fnv‰‘™Ÿ¥§¨«ª­««­­­­­jhhgghhjjjjhhgc`ZXUMHC=8558=CHNSY_dgloqtywy|vvtplf_[VQKKOXclt|„‹—œŸ¥§««««««­­­­­ghhhhhhjjgghgec_ZXPMFA:656;@FKSY_dilqty|€€‚zvslf`YSKKLV^fny‹”™Ÿ¢¥§ª««««­­­­­ghhhhgjjkggkgc`_YUPHE=8558=CKQS[agnqv|€‚„‡‡‰„‚|vqic^XPKKQYcnv‡”™¡§§ª«««««­­­­lgghhgjjjjjhgc`ZXUNFB;528=AHNSYadlty|€„ˆŠŒŒŒ‹‰‡|xpiaYSNKOW`hs{ƒŽ™œŸ¥§ª§­«­­­­­­jllhhggjjjjheb_ZXPMF@;528=@KQX[diqw|‚‡‡ŠŒ‘‘‹‡|vlf^WQKNV`hnyƒŽ–œŸ¥§ª§­­­­­­­­jmmhhkkjjjjhec_ZUOMF=8558=FKS[^fnty€„‡ˆŒŒ‘•••”‰‡zphaYSKKS[cnv‰‘™Ÿ¢§§­­­­­­­­­jkkkkhhjjhhgcc]ZROHB=555;AFNS[dhpy|€„ˆŠŒ••———”Ž‹„tlc[SKKOYclt‰‘™Ÿ¢§§ª­­­­­­­­kjkhhhhkkkhgc`]ZRNF@;655=@HPX^flq|‚„ŠŠŒ‘••——”‹‰vnf^VNILV`ks{†Ž–Ÿ¡¥§§ª­­­­­­­ghhhhhhkkkhgc_ZWRNF=;625=EJRX^fnt|„‡ŠŠŒŒ•———–‘‹‰ƒ{sh`WOILV^fnyƒ‹”¡¥§§§§­­­­­­ljjhhhmkkkjgc_XUPMF=8655=FNS[dfnv|„‡ŠŠ”———™—”‰ƒ|sh`YQIKQ[fny‹”œ¡¥§§§§­­­­­­kjjllkkkkkkgc_XUPJB=7558=FNS[dinv|„„ŠŒ‘”———™—–Ž‹ƒtkbYQKIQYclv‹”š¡¢©©©§§§§­­ªkjjlljjkkkkgc`ZUPJE:7558>FNV[dlpv|„„ŠŠ‘”•——™—–‹‡vlcYSKIOYclv‰”™Ÿ¢§§§§§§§¨¨§kmmmmkkkkkjec]ZUPJB:725;>HPV[dkpx|„‡ŠŠ••—™œ™—‹‡wlc^VKINYbku~‰‘™ž¡¥§§¥¥¥¢¥¥¥kmmmmkkmmkjec]XUNH@:7558@HPV^dkqx|„‡ŠŒŒ••—˜™—‘Œ‡ynf^VNKNV`ku~†—œŸ¡¢¢¢¢¢¢¢¢jmmmmkkkkkjeb]XROH@;5558@HPX^fmtv|„‡‰ŒŒ’——˜—‘Œ‰ynf^VNINV`lu~†‹–œ¡ ŸŸšššlkkkkmmmmkjeb]YRPH@;555;AHPZ^fmsx„‡‰Œ’———šš—”Ž‰ƒ{nf`XNGKV^kpyƒ‹”™œŸš˜—”””—mkkmmkommkjeb]YRMF@;528;AKQX`flsx|‚‡ŠŠ’——™™™—”‘‹ƒ{nf`XNIKV^hqzƒ‹‘”—œ—•’’’mllmmmmmmkkeb]YRMF@8826:AKQX`fnsx|€‚„ˆŒŒ’”—™™™—”‰ƒ{sh_WNGIV^hqyƒ‰”——˜—’ŠŠŒllmmmmmmmkkeb]YRME@85558AHPV^fmsv|„„ˆŒŒŒ‘”—™šš—‘Ž‰ƒ{pf_WNGIS^fpy‰Œ‘‘——•‹ˆˆ…ˆ‰kmmmmkomkmje`]WRMH@8555;@HPV^eksv|‚‡ŠŠŒ‘’—™™š™‘Ž‰ƒ{pf^VNIIS[hnv†‰Œ’’‹ˆƒ„‰kmmmmmmkkljeb]WRMH@8525:@HPX^eksx|‚„„‰Œ‘’——™š—‘Ž‰ƒ{qh_VNIIQ[fnvƒ‰‰Šˆƒƒ„mmmmmmmmmjjebZWRMH@8526:AHPX^empv|€‚‡‰ŒŒ’———™—‘Ž‰ƒ{qh_WOIGQ[fnvƒ‡‰ŒŒŠ†ƒ~|~„klmmmmmmmjje`ZXUMF@8526:AHPX^empv{‡‰ŒŒ”————‘Ž‰ƒ{ph_VKIIQ[gnv|ƒ„‰ŠŠ‹ˆ†~|~ƒ„omommmoommjebZXRMF@85558AJPX^fmps{ƒ„‰ŠŒ‘””——–‘‹‰yph_VLIIQ[fnv|„„‡ŠŠŠˆ…ƒ„Šmoommmmmmmjeb]VRMH@85558AHPX]ekpsy~„‰‰Œ’”——–‘‹‰ƒ{ph_WOIIQ[fpvƒ„‡ˆˆŠˆ†ƒƒƒƒ‰mmommmmmmmjgb]XRJH@:2238AHPV^ehos{~„‡ˆŠŒ’””—“‘‹‡yqh_YOFIS[fnw‡‡ˆŠ‹ˆ‰†ƒ……’omommmommmjgaZVRNH@:2258AHPV^ehos{~‚‡ŠŠŒ’’”””‘‹‰yqh_WOIIQ[fnv€ƒ‡‡ˆŠ‹‹‰ˆˆ‹Œ’˜ooooooonnmkg_ZXROH@8555;AHPV]chmsz~ƒƒ‡ˆŠŒ’••—”‘Œ‡yth^XQIIQ^fpyƒ‡‡ˆŒ‹‹Š•ooooommmmkje_ZVRJE@8555;>HPV]cgmsz{ƒ‡‡ŠŒ’”—“‘Œ‰yth^VQINQ[fnvƒ‡‡ŠŒ‹‹Š’˜ommmmmmmmjec]XRPJF@7555;@HNV]cgmsu{~‡‡‰Œ‘’——“‘Œ‡yth`XPKKS[cnvƒ‡‰ŠŠ‹‹’šooommommjge_YURMHB@75558=HNVZ`gmsv{~„‡‰ŒŒ•’—’‹‡yph^YPKOQ[cpyƒ‡‰ŠŒ‹‹’˜Ÿooommmjjjed]YRPJH@975258=HNRZ]ekpw{~‚‡‡ŒŒ‘””‘‹‡yph_YQIIQ[fnvƒ‡‰ŠŠŒŒ‹’˜Ÿoooooljjec_]UPJHE@955258=FJRV]`gmsw{„‡‰Œ’””“‘‹‰yph_WOILS[fpvƒ‡‰ŠŠ‹‹’šŸnrrmmjjeb_]URMHE@:722227=CHNS]_bkps{~ƒ„‰Š’””“‹‰{pf_WOIKS[cnvƒ‡‡ŒŒ‹‹’šoromkjgc`]YUOJE@=8520055;@HKRW]agmsuy„‰ŠŒ’””“‹‡ysh^[PIKQ[cnvƒ‡‡ŠŒ‹‹’šŸoommjgec]ZURJE@=:52200258@CJPUZ_bkmpuy‚„ŠŒ’””“‹‰ƒ{ph^ZPINQ[cnvƒ‡‡ŠŠ‹‹‹’šŸoommjgeb]XUNJC:7752200058=AHKRV]`ehlpvz„„Š‘””“‹‰ƒ{sf`XPIOQ[fnv~ƒ‡‰ŠŠ‹‹‹’šŸooomjee_YURNFA:752///00278=AFKRV]`chltvz„Š””“‹‡ƒ{sh^VQIIQ[cnv~ƒ‡‡ŠŒ‹‹‹‹’˜Ÿooomjec]XRNKC=85200///02268=CFNRX[`chntvz‡Š’”“‹ˆƒ{sh^VQIIQ[ckv~ƒ‡‡‰Œ‹‹‹’˜oomnjeb]URMH@;52200//.00058=@CHMRV[^cflqv„‡‘‘‘‘‹ˆƒ{sh`XQIKQ[ckvƒ‡‰‰Œ‹‹’˜oomljeb]URMH@755200///000258:@CFKPVY^chnty„‰Ž‘‘‘‹ˆƒ{ph^VQIKQ[cnv{ƒ‡‰ŠŒŠŠ’˜ooomkgb]WRMJB;75200//00.02258:@CFKNVY^clnt|‡‹‘‘Ž‹‰ƒ{sh_WQNKQ[fnv{ƒ‡‰ŒŒ‹‹’˜orrmjeb]ZURJB@7552/1120.002227:@CFKPVY^clov|‰‹Ž‹‰ƒ~sj^VQOKQ[fnv{ƒ‡‡ŠŒŒŒ‹‹˜orrmjgd_]WUOH@=8552//0220002257::>CKOSY^ckqwƒ‰‹‹‰‰ƒ~sj^VQIKQ[ckv{ƒ‡‡ŠŒŒ‹‹’˜rrrojjeb]ZWRJE@;75200020022555577:ACINQY_flsy‡‰‰‰†ƒ~tjaYQKKQ[ckv{ƒ‡‰ŒŒ‹‹’˜rrrojjebb]ZROFB=:77522222275555778:ADIOSYagnt{ƒƒ††~tjaYQKKS[cnv{ƒ‡‰Œ’˜rrroljjeb_]XRJHB=:75522225778;;:::::ACKQW[ciow|€€€~sjeZSNNSZcmu{ƒ‡‹Œ‹’šŸrrrromjgeb_ZUOJHB=:5544555;;====@A:::>CIQV[cipy~~~€zxsjbZVPNS[cmu{ƒ‡‹ŒŒŒ’”ŸrrrrommkjebZXRMHB@<775555:;=>@CCCCA@=AAGLSY^fkpwyxxyvphbZVPNQ[cmu{ƒ‡‹ŒŒŒŒ’”rrrrrmmmjge_ZURJG@<775557;=@CFHFJKFCCA>CGNS[^hknsssvsphb]VNNS[cnv~ƒ‡‹ŒŒŒ’•rrrrrommmmge]WTMJE?755577:@CFJJNNNNIFCCCDGNS[ahjmnnmmjfb]SQNS[cnv~ƒ‡‰ŠŒŒ’•rrrssoommmje_WUPJG@87277;@CFKNPRSSPQKIGDDGIOW^chhjjjhhb^[SNNS^fjwƒ‰ŠŒ’’ŒŒ’šrrrssrroomjgb\WRMH@:7579@BFJNRSVXXXSQQNIGGGKQY^`cbhffb^[VQKKS^fjw~‰‹Œ‘’ŒŒ—rrrssrrtromjf_\UNHB:7568ACHNUVX[[`[[XSQNIGGIOS[^`````^Z[VQNNQ[cjw~‰‹‘’Œ’”ttrrrssttrmkg_\UNJB=878:AHMRV[`bbeb^^[XSQIGIKPVZZZ][[[VXSQONS[cnw†‹Ž‘‘’’˜ttttrssttrole_]VPJB=85;=CJPUZ`cffkffc`^YSQKIIKQVVXXVVVSSQPKPS^fn{†‰‘“’”˜rrrturrttrnlg_]URJC@878@CMRX]bhkknnlfca[[SQKKKKNOSSSSSSSNKKPX^fpy‡‹‘‘‘’’’˜šsrututtttrolf_]WPJB@777@CMUZ`fkmmsspnkhfa[VOKKIKKNPPPPPNKIIPS^hs{ƒ‡‹‘‘“’’—šrtttuttrrrolgd]WOJH@<7;=FNUZ`hnsuyyvvqniha[VSNHHHINMMKIKKKKPV`hs{†‹‰‘““’’—Ÿrtturtutrrolgd_YTMH@:7;@FKS[`hpvy{|zywspkf`[VQKHHHIIIIIIKIKPX`ku~†‰‘‘”’’—Ÿtrttttttrronje_]UPH@:::=FKS[`iov{{ytpkh`YSQJHFFHHIGHHIIPY`kt‡Ž‘‘””’’ŒŒ—Ÿrtttttttttonje_]UNH@:88=CKSX`fny|„„|wqkf`[SNHFFCFGFHHHNS[ckt‰‘“”””ŒŒ˜rruurtttttrolg_]VPJB@:8=CKSYafny|„‡‡‡|wpkf^XSKHCACFFFFFKS[fny‹Ž““”””Š˜uuuuuttttttojg_]WRMH@::=CKSYafny|„‰Š‰‡‡{wske^VNKEAACCFFGIS^hp{ƒ‹‘–™—”ŒŒ˜urrttttttttoogd]YRMH@::=CKQY_fny|„‹Œ‹‰‰ƒ{wphb[SKICCFFFFINV^hpwƒ‹“–™™’’Œ’šŸrrrttuuttttrmjg_]UNHB@:=AFNX^fnt|„‰Ž‘‘‹‹‰†~vph^VSKGCFFFFINV`hpwƒˆŽ““——”’šŸruuuuvvvtttrnjgb]URJB@::CFNV[cltz‡Ž‘‘‘‘‹‰ƒ€xsje]VNICFFFFKPV^fnwˆ‹Ž‘——“”šŸtuuuuwwuutrtojga_XRMF@=:AGNVYcfpy‡‰‘‘‘‹ˆ{sjf`[SKFFFCHKQZ^hmv~†ˆ‹‘““’’’”˜ uuuuuuuuwvvuoojg_ZVPHC=:>FKQY^cnt~ƒ‡‰‹‰†ysjf^XSKHFFCHKQZ^ejs{ƒ†‰Ž‘’’“”š¢tuuuuuuuwvvwrokgaZXRMFC>AFKQV[ahnw~‡‹‹‹‰‡€ysje^XRKHIFFFKSY^fls{†‡‹ŒŒŒŒ’““•¢tuuwwuuwwvvwurojg`ZVPKCAAFIOVY_flty†‰‰‰†~ysje]XRNIGFHHKSY^flsyƒ„‰ŠŒŒŒ••˜ž¢uuwwuuwwwwwwwtrljb_XRNFC>AGKQW[agktyƒ††~{vpjb]XRNKIFIINSX^chnw{„‰‰ŠŠ“˜˜ž¢uuwwwwwwwzzzwvrolgbZXPKFACFKQSY^chntwy~~{vsog`]VSNIIIIIPSV^`hjsy{„„ˆŠ‹’•˜ž¢vwwwwwwwzzzzzzurokebZVPIFCCIOQW[_cinqvw{yywsnje`ZVSKKIIIKNSV[^chpvyy„„ˆ‹’’•ž¢wwzwwzzzz~~€{~zuspjf`[SQKGCGKOQY[_chkpsssssnjf`^XSOKKKKQQSS[^^chnttwz„ˆ‹•˜˜ž¢wzzwwzzzz{~€{{uspkf`[VSKHGIKQSY[^cfhikhjjhb`^YVVSOOPSVV[[^^`acikqwz|‚ˆŒ˜˜˜ž¢zzzzz{{{{~ƒƒ~~yupmfb[XQNIIINQSW[^^ccfcbb^^]ZVVSSQSVV[^`^`baacikptwz|€‡Œ•˜˜ž¥zw~~~{{~ƒƒ~yvsnfb^XSONIIKNQSV[[[^^^^[[VVVSSSVV[^`cfhhhfffikpswz|€„Š•˜š ¥zw}{{{~ƒƒƒ„„ƒƒ{ytpjh^ZVQNKKIKQQQSWVVVVVVSSSSVVY^bhfjjnnsnjkpstvy‚…Š•˜˜›¥zzz{{~~€€ƒƒƒ††‰‰ˆƒƒ~{vpkh`[VSSOKKONNQQQQSSSQSSSW[[`fhjnnsvyywvwwyyy{„„„…‹˜˜˜ž¢wz~{{~€ƒ„„‡‡‰‰‹‰‡‡„ƒ{ypnjf^YYVSQOQQQQSSQSSSSVX^`afkpswy{~~|ƒ„Šˆˆ˜˜˜ž¥{z}~~€‚ƒƒ„‡‡‰‰‰ŒŒ‹‹‰„ƒƒywsnhf`^[XVVVSSSVVVVV[[`cfjnsy~ƒƒƒ‡ˆƒƒƒ†‰‡‰ŠŠˆŠ‹••˜›¥zz~€€ƒƒƒ‡‡ŠŠŒŒŽŽŽ‹‰‡{{tpjhfb`^^^[X[[[^^`afhjnsx~€ƒˆˆŠ‹‹‹‹‹‹‹‹‹‹‹ŒŒŒ•“•›¢~{€€ƒƒ„„‡‡ŠŒ‘‘‘‘‘‰‡‡|wsskjhffccbbbcchhjjps{~€ˆ‹‹ŽŽ““““““‘“““‘‘’•••š¢~€€ƒƒ„‡‡‡‰‰Œ‘””“–““‘‘‘Ž‰†~{wvppnjkkjjkknssvy~†‰Ž‘–™™™™™œ——–———————’’’”••˜š¢€ƒƒƒƒ„‡‡ˆŒŒ’’•—–™™™™–““Ž‰‰†ƒ€~{ywsvvvvvwyy~~†‹‘–™žŸŸŸŸ¡Ÿžœœœ™———••˜˜š ¢€ƒƒƒ„„‡‰ŠŒŒ‘––———œ™™™™™—–‘Ž‹‰††ƒ~~~~~~~ƒ†‹““™™Ÿ¡¤¤¥¥¥¡¡¡ŸŸŸŸŸœ™˜˜˜˜˜˜˜ž¥ƒ„„‡ŒŠŒŒ‘”–™—™œœ™™žœ™—–“‘‘Ž‰‰ˆ††ƒƒ†††††‰‹‹“™œŸŸ¤¤§§§§§§§§¥¥¢¢¡™˜˜˜˜˜•˜ž¢ƒ„‡‡‡ŒŒ‘‘••—™—œŸŸŸŸžœ™™™“‘ŽŽŽ‹‹ŽŽŽŽŽ‘‘“˜™Ÿ¡¤§§©¬¬¬¬©§§§§§¢¡¡˜˜˜˜˜•˜ž¢ƒƒ‡‡‡‘’•——™™œŸŸ¡¡¡ŸŸŸœœ˜–––‘‘””–––––™™œžŸ¡¡¥§©¬¬¬¬¬®¬¬¬¬¬©§¥¢¢Ÿžššš˜›ž¥ƒ„‰‡‰ŒŒŒ‘’••——šŸŸ¡¡¡¡¡¡¡ŸŸžœœœœœœœœœœœ™žŸŸ¡¤¥§§©¬¬²¬­­®®¬¬¬®­©§¥¢¢¢žššš›ž§ƒ‡‡ˆŠ‘”••——™œ¡¡¡¡¡¡¡¡¡¡¡¡¡¡ŸŸŸŸŸŸŸŸŸŸŸ¡¥¥¥§§©©©¬²²²¯¯¯¯¯¬¬¬­¬§§§¢ žžžž› §„‡‰’••——™œŸŸŸ¡¡¡¢¢¤¤¤¤¡¡¢¥¥¢¥¥¡¡¥¥¥¥¥¥¥§§§©©©¬­­²²²²²¯²²­­­­©§§¥ žžžžž¢¬‰‡Œ‘‘••—™™ššŸŸŸŸ¡¡¡¢¢¥¥¤¤¥¢¥¥¢¥¥¥¥¥¥¥¥§¥¥¥§§§©©©©©¬­­¯¯²²²²¯®­¯­­§§§¥Ÿžžž›š¢§‰‘‘•———ššŸ¢¡¢¢¢¢¢¥¥¢¢¢¢¢¢¢¢¢¥¥¥§§¥¥§©©©©©©©ª­¬­­­¯¯¯¯­­­­¯ª¨§§¢ ž ›› §‘’••™—™Ÿ¢¡¡¢¢¢¢¢¥¥¥¢¢¥¥¥¥¥¢¥¥¥¥¥¥¥§©©©©©©ª­¬­­­­¯²²­­­­­­¨§§¢¢ žžž™ž ¥‘‘’——™™ŸŸ ¢¢¢¢¢¢¢¢¥¥¥¥¢¢¥¥¥¥¥¢¥¥¥¢¢¢¥¥§§©©©­©¬¬¬¯¬­­¯¯¯¯²²­­ª§§¢¢ ž›ž™žž¥’’•—ššš¢¢¢¢¢¢¢¢¢¢¥¥¥¥¢¢¥¥¥¥¥¢¡¡¡¡¡¡¥¥§§©©©­©©¬¬¬®­­¯¯¯¬¬¬­­ª¥¥¢ žžš›™›ž¥‘‘••™™™šŸŸ¢¡¡¢¢¢¥¢¢¢¢¥¥¥¢¥¥¥¥¥¥¢¢ŸŸŸŸŸŸ¢¥¥¥§©©©©ª¬¬¬¬­¯¯¯­­­­­­ª¥¥¢žš˜˜›ž¢’‘’•——ššŸŸŸ¢¡¢¢¢¢¢¢¥¥¢¥¥¢¥¥¥¥¥¥¢¡ŸŸŸŸ¡¥¥¥§©©©©©¬¬­­­­¯¯­­­­­ª§¢¢žššš˜˜ž¥’’•——ššššŸŸ   ¢¢¢¢¢¢¥¢¢¥¢¢¢¥¢¥¥¥¡Ÿœš™———™œŸŸ¥¥§©©©©©©¬­­­¯¯­­­­­¬ª§¥ žššš˜›ž¥