P5
80 120
255
onnnnnnnnoorrrrruwwuwyywz||}€€ƒ†ˆ‰ŒŒ”–—œ¡¡¤¥¥§ªªªª¬¬¬¬¬¬¬¬¯¯¯¯¯¯¯¯²²²²²²²²²²²onnnnnnnnqqrrrrouttttwyxz|||€€ƒ††‰‰””—œœ¡¡¤¤¥§ªªªªª¬¬¬¬¬¬¬¬¯¯¯¯¯¯¯²²²²²²²²²²²nnnnnonqqqqrrrrrttttutwwwzz|€€€„„‰ŒŒ‘”–™™œ¡¡¡¤¦¦§§§ªªª¬¬¬¬¬¬¬¯²²²²²²²²²²²²²²´²²nnnnnonqqoorrrrttttuuuxwzzz|}€€„„‡ŒŒ‘––™™œŸ¡¡¤¦¦§§ªªªª¬¬¬¬¬¬¬¬¯¯®®²²­²²²²²²²²²²nnnnnnqqqoorrqqstttwwxxzzzz|}€€„„‡‰Œ”–˜™œ¡¡¡¤¦¦§ªªª¬¬¬¬¬­­­­¬¯®®¯²¯¯²²²²²²²²²lnqnnnqqqqrqqqqqtttttwwtzzz||€€„„‡‰ŒŒ‘‘”–™™¡¡¡¤¦§§§§¬¬¬¬¬­­¬¬®¯¯¯¯¯¯¯²²²²²²²²²lnnllnrrrqqqqqqqtttttwwtzz|z|}€ƒƒ„†ŒŒ‘”–™œœœ¡¡¡¤¦¦§§ªª¬¬¬­­¬¬®®¯¯¯¯¯¯²²²²²²²²²nnnllooqqqqqqqqrrttttttzzwzz}{€€ƒƒ††ˆ‰Œ‘”˜™œœ  ¡¤¦¦§ªªª¬¬¬¬¬¬¬¬¬¯¯¯¯¯¯¯²²²²²²²nnnnnnoqqqqqqrrrrtttttwttwzzzzz~~€ƒ„„†ˆŒŒ“–˜››   ¡¤¦¦§§¬¬¬¬¬¬®®¬¯®¯¯¯¯¯²²²²²²²lnnlqrrnnrrqqtttttttttttwwwwwww}}~~~€ƒƒ‰ŒŒ”––› £¤¦§§ªª¬¬¬¬¬¬¬¯®®¯¯¯¯²¯²²²´²moolrqqnnnrrtssttttttttttwwwwwwwwx{x{~€‚‚ƒ†ˆŒ“––˜¡¡¤¦§ªªª¬­¬¬¬¯¯¯¯¯¯¯¯¯²²²²²looqqqqoonrrtssqttttttttttttrrruutuuwwx{~~ƒ††ˆ“•˜¡¡¦¦ªª¬­¬¬®®¯¯¯¯¯¯¯²²²²²²lqqqqnnoooorrttttttttttrrrrqqmmomooorssuuxz~~~ƒ†ˆ•˜› ¡¤¦©¬¬¬¬¬¯¯¯¯¯¯¯¯²¯²²²²lqqqqnnnnnnsstttttttrrrqnoolljjjjgmjjmmmmruux{{~‚†ˆ“–›› ¡¤¦§ª¬¬®®¯¯¯¯¯¯¯²¯²²²²nnqrrnnrrssqqttsssstronlljgjjgeeebbaabehhkkmssux}~‚†ˆ•–› ¡¤¦§ª¬¬®¯¯¯¯¯¯¯²²²²´´llqqqnnnnssrrtttttrnnnljjddbbb__]]]ZZ]]^bbegkknrux{€‚ˆŠ“–›£¤¤ªª¬¬¬¯¯¯¯¯¯¯²²²²²nnnqqnnnqqqrtrrrrqnnnljdddb_]]\YWWWUXVVZZ^`bbefmmrux{€‚ˆ•˜Ÿ¤¥§ª¬®®®¯¯¯¯¯¯¯¯¯²lnnqqoonnqsqqrrrrqnljjdbb^\YWWUQQOOPPRRUVZZZ^bbegjmoux~‚ˆ•˜ ¤¦ªª®®®®¯¯¯¯²²²²²lnnnnoonnqqqqttronljidb_\YWUQOOMMMMMMPPRRVXXZZ`bbeekmruz€†ˆ“˜ ¤¦ª¬­®®²²¯¯±²²²²lmonnnnnnqnqrrronllid^^YYUQOOLLIGHHJKNNPPRUXXX[Z`bbefkmtz~…‹“˜› ¤ªª¬¬®¯¯¯¯±²²´´nnnnnnnnnrrorrqnllfda\\WTQMMIGGGEFFGIINPPPRRXXXZZ``bbekoux~‚ˆ•˜¤¤ªª¬®®¯¯²²²²²²nnnnnqqnnrrrrronjjdb\YYTQLLGEBBEEFFFHINPPPPSVXXZZZ]``behmrx~†‹•˜¤§ªª¬®²¯²²²²²²nnnnnnnoorrrnnnlidb\YWTOLGEBABBBBCFHJNNRSUVWWXXZZZZZ^`behmsx€…•›¤¦ª¬¬®²²±³³³²nllnnooorrroonljdbb\YTOLGDA@@@@@@EFJPRVXXZ][[[[[[ZZ^^^`bbfmsz€ˆŠ– ¤©ª¬¬²²±²²²²nlqnnnnrrrrnnjjfdb\WTOLID????=@BBHNPRXX[^``ccb`````^^]`bbbhmuz€ˆ˜ ¤ª¬®®²²²²²´nnnnnrroorrqlkida\YTQLGDA<<<?@BEJNRUX^``chhiihhhfc`````^^beknu~ƒŠ–› ¤ªª®®¯²²±±²noonnrrrrqqolidba\WTLIE?<<<==@EJNRVZ``fkknnpsppokkfc``^^^^bfkox€ˆŠ“˜œ¡¤ª¬®®±²³³²nooqqooorqnnlfda\YTLIED<<<<=@EHNRV^`ehlpsuuxxvuusnkhcbb`[^^`emox€Š–›¤ªª¬¯²²²²²nnnqqooorqqlfdb^YUQIEA?<<<<?BHNRX^cfhpsxx{~~~~~{{vslkfb`^^^`bgox~†Š“˜£¤ª¬®²²²²²nnqqqooqqqnjgd^\YTMID?<<<<?BHNRX]bhmps{~ƒƒƒƒƒ‚~~yspkgb```bbemox€ˆ–›¤¦ª¬²²²²´nqrqqrrqqnljfb^\VQLFA<<<<=BFMRX]chmsx{ƒ†‡‡‰‰‰†††€€zurkhbb^``bgmu~…˜¤¦ª¬®²²²²norqqroqqnljdb\VTOID?<99<@EJQV]`fksx~ƒ‰Œ‹ˆˆ†€{urkhb`^^aemox€ˆ–¤¦©¬®²²²²nrrnnqqnnljfb\YVTLF?<<99=BHNUZ]ekpx{†‰‘‘–”–ˆ†€zupkb`^^bbgmt}…•˜Ÿ¤ªª¬²²²´nrrqqqqnnlidb\XTPLD<<99<@EJRV]ckpu{ƒ‰”–™˜˜˜––“ˆ…~usmhb`^bbejrz€ˆ–¤ªª¬²±²´nrrnnqqqnlica\VTLGD<<<<=BHPRZ`ensx€ƒ‰‘”˜˜˜œœ˜˜˜“’ˆƒ~uskeb^b]`fmu€ˆ˜œ¡¤ª¬²±³´nrrrrqqqniid\YTPLEA<<<<=EJRW]ckpw{†Œ”–˜›œœœ›˜—“†‚{umkb`^^bemu{†‹”™¤ª¬®±³´nqqrrqqnlidb\VTPHDA<;9<=EMRZ_emsw~ƒˆ‘”–—™œœ˜˜•ˆ†~unkeb^^`egox‚Š“˜¤¦¬¬±³´nqqqqqnnljdb\WTNFAA<<9<BHOUZcgoszƒŒ””—™œŸ¡˜–†€zsmfbb^^bemu€‰˜œ¤¦ª¬±²³nqqqqrnllid^[VTLFD?<99?BJQU]egow{‰Œ”–—™œ¡¡     ›˜”‹‚~tmfbb^^bemu~‚Š–Ÿ¦§®²²²nqqqqrnliid^[TPLD?<<99?BJUY_emsw~ƒˆ”–™™œ¡¡¡¡¡ œœ˜“ƒ€xohbb^^^bjs{ƒ‹“›Ÿ¤§¬±²²oqqqqrnljdb\YTQFD?<9<<AEMUY_emux~ƒ‰”—™™œ¡¡¡¡¡¡ ›˜•‰zskeb`]]bhrz‚Š“˜Ÿ¤©¬±²²oqqqqqqlidb]YTNFD?;99<AGOU\egoux€†Œ””–™œœŸ¡¡¡¡¤¤¡›˜–Š‚{sjebb^^agox€ˆ“˜¤§¬®±±nqqqqqqlidb\VTNFD?;99<BIQWZekow{‚ˆ”––™œŸŸ¡¤¤¤¤¡ ›–Š†{umgb`^^]emu€ˆ˜¤§¬®±±qqrrrqqlida\VQLHA<;99?EMOX]emtw€‚‹””—™œœŸŸ¡¤¤¤¤¡¡˜ˆ€xmgb`^^^elu}†—¡§¬¬²³qrrrrqnljda\TTLDA<88<?DLT\_hmtw€†‹””™›œŸ¡¡¡¤¤¤¤¡ ›•ˆ€xogeb^^]bjtz…—› ¦¬®±´qqqttqnlida\XSNDA<<8<?EMUYbhpuz†‹”–™œœŸ¡¡¡¤¦¦¤¤ ›˜‡€zphbb^^]bksx…“› ¦¬¬±±qqqrrqnlidb\TPLDA?<9<?EMUYbgowz€ˆŒ––™œœœ  ¡¤¤¦¦¤¤¡›˜ˆ‚zogb`^]]bgox†Š“› ¦¬¬±±rqqqqqnlida\VQLDA<8;<?EMU\bgow{ƒ†Œ‘–—™œœœ  ¡¤¤¦¦¤¤ ›–Š‚zoge`^]]`emxƒŠ“› ¤©®´´qqqqqqlkida\VPLE?;8;<AEMU]dgow{ƒ‰Œ•—™œœŸ¡¡¤¦¦¦¦£  ›˜“Š‚zogb^^]Z`emx€Š“› ¤ª¬²´qqqqtqqkida\VQLEA<8<<AGMU]bgow{ƒ‡––™™œœ¡¡¡¡¤¦¥¥¤¤  ˜“Š‚zrkb]^[Z^emu~ˆ˜ ¤©¬±±qqqqqqnlida\VTLEA<9<<AEMU]bgow~ƒ‡‹‘””–™œœ¡¡¡¡¤¦¦¦¤¤  ›—ˆ€xrkb]]ZZ]ekt~ˆ˜ ¤¬¬±±qssttqqlida\VTNGA<<<<?BMU]bhow~ƒ‡‘”——œœ¡¡¡¤¤¤¤¤¦¤ ›–ˆ~vog`]ZXX]emr}†–¤§¬®®rqttrqqlida\VTNGA<<9<@EMU]bgowzƒ†‘”—–œœœ¡¡¡¤¤¦¤¤¦  ›“ˆ~vmgbZZVXZ_gr{†“›¡¨¬®®qrrtrqqlifc^YTNGA?<<<?EIQZagmu~†‘”™œœœ¡¡¤¤¦¦¦¦¤¡ ›“…zrme`ZWWVZ`hrz†–¤¦¬®±sttrrqqllfd^XTNIDA<<<?BGOX`hmu{‡‘”˜œœœŸ¡¡¤¤¦¦¦¤¤¡ ˜“Š‚zrld^XWUUZ`hoz†–œ¡¦¬®³tttrrqqnlfd^[VSLDA<<<<BHPW_eks{†‹‘”˜™œœŸ¡¤¤¤¦¦¦¡¡¡ œ•“Š‚zrga]XUUUY`ho~…Š–›¡¦¬®±ttttttqqlida\VSLFA<<<?BGMW_bksx€†Œ‘”˜™™œŸ¡¤¤¤¦¦¤¡¡››•†~ulg`]WRRRX_go{…Š–›¤¦¬®±sttttssqlida\VTNHDA<<<AGMW]bhpx†‹”˜œœŸ¡¤¤¤¦¤¡  ›˜•‚}ule_ZURRRV_goz‚“›¡¦¬®¯sttttssqllid\XTNKDA??=@EJUZ`hnv{ƒ‰”˜œœœŸ¡¤¤¤¤¡   ››•“Š‚zrie]WUOMRZ`hmz‚Š“› ¦¬®®tttttsqqnlid^YUNLEA???@EHPX`ens{ˆ”–œœŸ¡¡¡¤£   ›—•‡wogb]XPMMRX]eozƒ‹“› ¦¬®±ttwwwssqqlida\WTLID????BEPUZbksyˆ‹”–œœŸ¡¡¡¡   ››•’Š‚zrjg`XROJJPW_gox‚Š“› ¨©®±tttttttsqnkfc\YTNLD????@EJRZ`fny{ƒˆ”˜›    ›š•“‡xoiaZXPMHJRW_gox…Š“› ¨¬®®tttttttssnkic^\VQLFD???@BFPX`eksy€ƒ‹•˜››—•’ˆ‚zrie`XUNHEKPW_goz…Š•¡¦¬®²tttttttsqqlkf_\WTLIE???@BHNRZ`hpy{†‹“•˜››››˜——“Š‚~vogbZUPMEHJPX_goz‚• ¤¬®²tttssvvtqqnlfd^WTOLGD@@@BBHPX]ejpw~ƒ†Š’––˜˜˜–“““Š‚~xrjb_XPMHDEJPX_eoz‚Š•£¨®±³tttuuyttsqqlff`\WQMGEBB@BCHKSZ`hms{~…†Š“Š‡…}zsje_ZUOHBBHJPX^fm{‚Š•¡¨¬²³tttssvyvtssnkfd]\WOIGGDBBCFJPUZehmvx~‚†ˆˆŠŠŠŠ†…‚}yumg`ZWPJDBBDMRX]en{‚Š–›¡¨®®±ttysyvyvtusnljd_^WTOIGGEECFHMRX]ejosv{~€……†……†…‚~zxsog_ZWROEB=BGMRX_eo{‚Š•›¡©®±±tsvtywwyvtsnnkfd^\WQOJGGECHFJNSX^eimrvxz}~~€~~}xxrmg_]WRPHD@@BGMRX`fr{†•›¤©®³¶tsvwwyyyvtttnnifd_\WQOJHGHHHIKNUZ_egjmsuvvzxxyyuroig_]XRPMEB@@BGOQY`gr{†˜¤©®³¶wtvvvyyyyvtssnlgfa^YWQOJGHHIIKNNSX]behjmomrrrroojgb_]ZXRNHEB@BBHOUZbhs{†–¤©®²¶wttvvyyyyyvssnnjifa^YWQOJJJJJKKNPUX]_begiijiljige`_]ZXUPKHDBBDDHOUZ`jr}†–¦©±³¶tttuuyyyyvtttsnnkifa^YWRRNMKKKKNNPVXZ]`bbeeggeba_]]]ZVUNKHEGGEEJPUZbjrz†–¤©®±¶tvvuxttxyyyvvssnnlgfa_YYWRRNNNNPPRRUXX]__aaaa`_`Z]^]ZVRPNMJJIHHMPX]ais~ˆ˜¤¬±³¶tvvyywwyyyyvvtttnnljfa_]\ZVUUPPPPPSRRUXXZZZZ_]]]]]^ZZXRPPOOOOMMPUX]bjs~ˆ˜ ¦¬±´¹tuutyyyyyyyyvvvvtrnojheb`]ZXVVUUURSRRXXXXZZZ]]]]^^^ZZXXUUUURPPPPRZ`ejs~‰“œ ¤¬³³¼wxxttvvyyyyyyyyyvtroomkeeb`^]XXXXXXXXXXXZ]]]]]_^``_^]ZZ]]XVURRRRX]`hmv€•œ ¤¬³¹¼wvvttvvvv||||}}|yytttoomkhfeb``^ZZZZXXXZ]]]]`]```bbb```_]^XXXWWXZ_bgmv~Š•£©®³¹¼ttvvvyyvvvy|}z}}zzxwttoopjjhhbcb````^^`````beeeegggggeee`_]XXXZ_beiox‹–œ¤©±³¹¼ttvvyvvv|yy}}}zzzxxxsspnpjjjhhbbbbeeeehhhkjjoommjjiibb`_ZZ_bhhjs~†˜ ¤¬²¹¹¾wttvvvv||y|}}€‚€€€~{zyyvvssspommmjjjjjjmmmprrsvrrrroiigeb]]`bhhjs~ˆ›¡¨¬²¶¹Àtwwttyyy|y|}}‚‚‚‚‚ƒ€€~~{{{{{wvvvvrrrrrssvxxx}zzzzxvrroiiebbbehhmv€ˆ›¡¦¬±¶¹Àtwwyyvvyy||}}‚‚‚†††††ˆ†ƒƒƒ€€~~~~}}}z{{{~}}~~€€‚‚}}yurojieegghjoz‚Š“¡¦¬±¶¹¾tttyyvvyy||}‚‚…†‡‰ˆˆˆˆˆ††††††††ƒ‚‚‚‚‚‚‚‚‚‚……†ˆˆ†…‚}wrojheehhjjrzƒ‹–¡¨¬²¶¹¾tttvvyzy|}}€‚‚††‡‰‹‹‹‹ŠŠŠˆˆŠˆˆˆˆˆˆˆŠŠŠŠŠŠˆ‡……}xrmjhehjmmoz†–™¡¨®´·¼¼tttvvyy||}}€€‚‚‚†††‹‹‹‹••ˆ‡‚€zvsjjhhmoos~ˆ˜¤©±´¹¼Àtttyyz}||}}€€‚‚‚‚††‰‹‹”“•––••’’••’’““••““•–––•“Š…‚zvrmjhjmmrv‚“˜¤¬±´¶¹¾twwtyy||}z€€€‚†‰‰‹‹”––––˜˜˜˜˜˜————˜˜˜˜˜›››–•““Š†‚~xpjiijmms}†“› ¦¬±´¹¾¾tttvv|||}zz}}}}}}~~€ƒˆ‹‹‘”––œœ››››››››››—••ˆ‚}vnjjjjmpyˆ–£§¬±´¹¼¾tyyvyzz}}zzzzzzzz{{{ƒ‡‰‹‘“˜œœ        ›—•ˆ€zuojjjjns{€ˆ˜¦¨¬±´¹¼¾yvvvz}}zzzzzzzzxxvyy~~ƒ‡‹“–›¡¤¤¤¤¤¡¡¤¤¤¤¤££š•†~xrmjjjjnvz€ˆ’›¡¦©¬±·¼¼¼vvvvy}}}}zzzzzwuuuuxx{~ƒ‰‹”–›œ ¤¤¦¦¦¦¦¦§§¦¦¦¤¤¡ œ—•Šƒ{vomihjjmux€ˆ›¡¤©¬±¹¼¼¾tvvyy|}}}zzzzuuussssuy{~ƒƒˆ––œ¡¤¦¦§§§§§§©§¦¤¤››•’†€xsmhhgijjsy€ˆ•›¡¤©²³¹¹¼Àyyy|||}}zzzxuusspnppssw{€ƒŠ“”˜› ¤¤¦¦¦§§©©©¦¤¤˜–•Šƒ~vnjhhgjjnv~…˜¤¦¬²³¹¹¾Ãyy||||}}zzzxusssnnmmnppsv{~‚ˆŠ“˜œ ¤¤¦§§¦¦¦¤¤ ›–•ˆ†~xojfhhhjjsx€ˆ˜¤§¬²³¹¼¾¾vy||}}}}}zzxusspnlhhhhlppsy~‚ˆŠ“˜› ¤¤¤¤¤¤¤  ˜˜•Š…~{smhffffjms{€ˆ˜ ¤§¬²³¹¼¼¼vy|}}z}}}~{zuusnmkhffffhkpsxz‚ˆŠ“–›     ››•ˆ€{vmjfffffjov€ƒ‹“œ ¤©¬²·¼¼¼¾vy|€€~{zxusnkhffcccffhmrv{€†Š“•˜›››››››˜–•ˆ€}vsjeeefhfjsy€ˆ–¡©¬±´¹¼¼¼¾zy}~€~~{xupnmhfcc``aabfjpx{~ƒ†Š““•––••–“Šˆ†‚~xpjhefffhjmv~ƒˆ˜Ÿ¤©¬±´¹¼¼¾Áyy}€€€€€~{yusojhhca^^^^^afhosx{‚†ˆŠ‹‹Šˆ†‚~{vsjgbbfffhjsyˆ–¡¤©¯´¶¹¼¼¿Áyzzz€€‚‚‚€€~yuupmjf``[[YYZ`_ehmosz~€‚††ˆˆ††††‚‚€~xsnjhfbbcfhhpv{ƒ‹˜¤©¬²´¹¹¼¾ÃÄ}zz€ƒ‚‚ƒƒ{yysokf``^[XXZZ]]bejosuzz~~€‚€€~~~{xvsmjfeebbbfjmsy~†– ¤©®²¶¹¼ÀÃÃÄ}}€€ƒ……ƒƒƒ{yvsmhbb`[XXXXZ]]`egjppsxy{{zzxvssrojjfbeebbffmsx~‚ˆ˜¤©¬´¹¹¹¾ÀÃÃÄ}z€€€ƒƒ†††††{{vsmje`^[YYYXXZ^^`ehhjppssrrrommmhhhbbbbbbfjpv~€ˆ–›¡¤©²´¹¹¹¼ÁÃÃÄ}~€€‚ƒ††‡‰‡‰†ƒ{wsmjfb`[[[YYZ[[^^`begghhiijjhhfebbbb`bbhmsv{€†‹“™¤©¬²´¹¹¼¼¿ÃÃÆ}€€‚ƒƒ††ŒŒ‰‹‹ˆˆƒ~xvojeb``^[[ZZZZ[[]]``bbbbbbeb`````bbbfjsw~€†Š˜œ¤¤©®²¶¶¹¼¾¾ÀÄÆ}€€ƒ††‰‰Œ‹‹‹‹‹‹†ƒƒ~yvpmjeb`^]ZZZZ[[XZX[]]]]^^^]]]^^`bejmsv~€†‹–œŸ¤©¬®²¶¶¹¼¼ÁÁÄÆ€€‚ƒ†‰‰ŒŒ‘‘‹Š†ƒ€{vsmjebb_^[ZZ[[XXYYXXZZXXXZ[[``bbjmsvz€†‹–œ¤¦¬¬±´¶¹¹¼¼ÀÄÄÃ€‚ƒƒˆ‰‰Œ‘”•”‘‹††€~{vrmieb````[ZYYYYYYXXXY[[^`bfhjosx}€ˆ•¤©©¬²²¶¼¼¼¼¾ÃÃÃÄ€ƒ†‰‰Œ‘”•—˜”””‹‹††€~xvomjfbb``[ZZ[[[[[[[^`abfjmnsv{€‚ˆ‹’˜˜Ÿ¦©¬®²³·¹¹¼¿ÀÄÃÄÄƒƒƒ‰‰Œ‘””˜™™™–––”Š†‚€{xvomjhhgbbba`bb`cbbehimmsvx~€‚ˆ’˜œ¤§¬¯®²¶¹¹¹¼ÁÁ¾ÀÄÈƒˆˆ‰Œ‘”•—™™œœœœœ––”ˆˆ†€~zvsmmmjhhhfhhhhjjmorsv{~‚‚ˆŠ’˜œ¡¤¨¬®²®´¶¶¹¹¹¾¿¾ÀÆÆƒˆˆ‰Œ””—™™œœœœœœœ›––”“ŠŠˆ‚€{zxvrponpoooorsvxx{~††Š•˜Ÿ¡¤¦©®¯²²´¶¶¶¹¹¹¼¾ÀÁÄ†ˆ‰Œ‘”–™™™œŸŸŸ¡¡ œœ›––”“Šˆ…‚€€zzxvxxvxxzz{~~‚†ˆŠ“–˜œ¡¤©©®¯²´´¶¶¶¶¶¶¶¼¿ÀÀÄ‰‰Œ‘‘”—™™œŸŸ¡¡¡¡œ›––”“Š††‚‚€~~€€~~~ƒƒƒ†Š–˜›Ÿ¤¤©©¬®²´¶´´¶¶¶¶¹¹¼ÀÄÀÄˆ‹‘‘•™™™™Ÿ¡¡¡¡¡¡¡¡¡¡œ›˜––““ŠŠŠˆ†††††††ˆŠ‹•˜™ŸŸ¤¤©¬¬®±²¶¶´¶¶¶¶¹¹¹¼¿ÁÁÄ‰Œ‘”—™™œœŸŸ¡¡¡¡¡¤¡¡¤¤  œ›˜––•“Š‹““•––››Ÿ¡¤§©¬®®¯®´¶¶´¶¶¶¶¶¹¹¹¾¾¿ÀŒ‘”•—™œœŸ¡Ÿ¡¢¥¥¥¥¥¥¥¤¤¡  œœ››˜––––•“““””––––››œ ¡¤¦§©¬¬®¯²´´´´´´´¶³¶¹¹¹¹¹¿¾Œ’•—™™œ¡¡¡¢¤¤¥¥¥¥¦¤¤¤¤¡¡   œœœœœ›››˜˜˜››››œœ  ¡¤¦§§©©¬®¯¯²²´´´´´´¶³¶¶¶¹¹¹¹¼‘‘•——™œŸŸŸŸ¤¤¤¥¥¥¥¦¦¦§§¥¤¤¡¡¡¡         ¡¤¤¦§©©¬®®®¯¯´²´´´´´´´´¶¶¶¶¹¼¹¶