P5
80 120
255
wtwwwwwxxzzxxzzz|||}}€ƒƒ…†ˆˆˆŒŒ‘”–™œ ££¥¥¨¨­­­­²²²²´´´´´´´´´´´¶¶¶¶¶¶¹··ºº»»¼¼¼wtxwwwwwwzzzzz|z|||}}}€€„„ˆˆˆŒŒ‘”–—œ ¥¥¥¨¨¬­­­¯¯²²²²´´´´´´´´´·¶¶¶¶¶¹ºººº»¼¼¼¿twwwwwwyyxxyyzz||||||€€€ƒ„„ˆˆ‹ŒŽ‘”——œŸ ¥¥¥§¨§¬­¯­¯¯¯²²²´´´´´´´´´¶¶º¶¶¹ººº¼¼¼¼¿¿wwwyyyyzzzzzzzzzz||||}€€ƒ„„†ˆ‹ŒŒ‘”—™šŸ £¥¥§¨¨­¬¯¯¯¯¯²²²²´´´´´´´´´´´´¶¹ºººº¹¿»¾¿wwwwwwwwwzzzzzz||||||€€ƒƒ„ˆˆ‰ŒŽ‘”—™š  ¢¢¥¨¨«¬­­¯¯¯¯¯¯¯¯¯¯¯²²´´´´µµ´´····ºº»»¿wwwwwyyttuxwwwwzzzzzz||ƒƒƒƒ††‰ŒŽ‘”–™šŸ ¢¢¢¨¨¨«­­­­­­­¯¯®¯¯¯¯¯¯¯¯¯¯µ´´´´¶···»¼¿wwwxxwwwwuxwwwwwwwwwwzzzz}~~ƒƒƒ†ˆŒŒ‘”•—™Ÿ¢¢¥§¨ªª«ªªª««««ªª­­¬¬¬®®¯¯¯¯¯²²´´¶¶º¼¿tttuuxxwwzzwwwwwwwwwwwwzzzzz~~ƒ‡‰Œ”—œŸ¢¢¥§¥§§§§§§§¥¥§§§§§¨ªªªª««­¯®¯¯²´¶¶¼¿wwwuwttwwwwwwwwwttttrrrrrruuz{{{ƒ‰‰Œ‘—™Ÿ¢¢¥¥¥¥¢¤¤¥¢¥Ÿ¡¢¥¥¢¥¥¥¥¥¥ªªªªª­¯²´¶¶¹tttttztwwwwwwwttrrrrnllmmmorruuxx{~ƒ‡‘—šŸŸ ¡¡¡¡ŸŸŸŸžžžžŸŸŸŸŸ¡¡¥¢¥¥§ª«­²´¶¹ywwttwwwwwwwwtrqnmljjjjjjggmmmoppsxy~ƒ‰‘—™šŸŸŸŸž™œ™™™––™™™™™œœœžžŸŸ¡¥¥ªª­¯´¶wwwttwwwwwwwrronljjgeddddeeeeggjkppsvyƒ‰Œ‘•™™™™™œ™™™˜””‘‘‘”””””–˜™™Ÿ¡¥§«¯¯´wwwwwwwwwwtrroojjgebb____]]]_``bbhklnsyƒ‡Œ‘””–––˜”””Ž‹‡‡‡‰‰‰‹‹ŽŽŽŽ“””™™¡¥§«­²uuwwwwwwwwtrrnljgdb]]]WWWWWWXZZZ`^cfhksy„‡‹‘”””””ŽŽ‹‡ƒ~ƒ††Š‹Œ‘”–™ ¥ª­¯wwwwuwwwwwtrqljedb_YYUURPPPPPRUUW[[`bhns{†‹‹ŽŽŽŽŽ‹‹‡ƒ|yyywwwww{{~ƒƒ‰‹Œ‘”™Ÿ¢ª­¯wwwxuwwwwtrqqjjeb_]WURRMJHHJJMMPPSSZ^cipyƒ‰‰‹‹‹‹‰‰„{vppnppnppssy{ƒ‰‰Œ”™Ÿ¥«¯wwwwwwwwwwrrnjjdb_YWTOMIEEEEEEGHHKPVZ`fnt{†‰‰‰ˆˆ‰ƒƒ|vpmhhhhhhjjpsy{‡‰‘—Ÿ¥«¯wwwwwwwzwwtonjfdb]YUTOLGE@?==@@@BEKPV^fntyƒƒˆƒƒƒ††€ysnfc``````fhnpv{†‰—šŸ¥ª®wwwwwwwwwtronjfdb]YUQMGE?:775778;>CKS[clsyƒƒƒƒƒ††{vph`^[[[[[^`cfntyƒ‰—šŸ¥ª¬wwwwwwwwwwronjgbb]YUMJE@975222558;AIQ[clsy†‡†††ˆƒ{tlc[XXVVVVV[^clnvƒ‰— ¥ª¬wwzwwwwwwwrrnjgbb_YUMEB=951---257=AIQ[clsyƒ†‰‡ˆˆˆƒyskc[SSSSSSXX[cipx|ƒŒ‘™¥§«®wwwyyyywwwrrnjjeb_YUMGB=95111-157=CNV[clt{†‰‰‰‰‰‰†yskb[VRSSSSVZ^elsx|‡Ž”™Ÿ¥ª«¯wwwwwwwwwwrrqljjdb]WQJE@<7541/157@HPX`hnxƒ‰‹‹ŽŽ‹Œˆ{smc[XVSSSSX[bfnv|ƒŒ‘—¡ª«­±ywwwwwyyywwtronkib_ZRMGB<9744257;@HS[clt|ƒ‡‹‹‘‘Ž‰ƒ{unh`[[XXXX[`cls{ƒ‡”œŸ¥ª¬²²zwwyywwwwywwqrnligb]UQIEB<75457;=FNX`fnv†‹Ž‘””‘‘‘‹†~uofb[[[[[[[chpx†Ž”—¤§«²²´wwwwwwwwwywwtrqllgb]YTLHB@<757:=AHPXblt{ƒ‰Ž‘”——–”‹†~xpkb``^^[``hmu{ƒŒ”—œŸ¥ª¯²´¹wwwzzyyyyyywtttqljd_\UQJEE<:77=@CKS[fnv†Œ‘–™™™–”“‹ƒ€ypkfeb^^^chls{ƒ‰‘–œŸ¢§¬²´¶¹wwwzzyyzzyyywttrnlgd\WUMGE?<<==AHNV`hpv‰Œ”™œœœœ–“Ž†~ysmhfbc`bfkpy‰‘–™Ÿ¤§«²´¶¹¹wwwwwyyzzzzyywwtolgd^XUOME@===@CHS[bkt{‰‘—™œœœ—”Ž‡ysmhfefcfhpv‰‘”™Ÿ¡¥¬­´´¹¼¼wwwwwzzzzzzyyvvtrljdb]URJGE@@=@HNS[fkvƒ‹”—œ–”‹†~wspjheffinu~†Ž–™Ÿ¥ª¯²´¶¶¼¼wyywwzzyzzzyyzyvtqljb]WRMJE??@CHNV^hpy„Œ”™›–”‹ƒ~wspjhhfhms{ƒŒ‘™œŸ¥§®²´¶¶¼¼¾wwyzzzwzzzzyyzzytrnje_YVQJG@@@CHNV`hp{‰‘–œŸ––Ž‹ƒ~wspjhhflpv‰‘™œ¡¥§¬²´´¶¼¼¾¿wwwzzzzzzzzz}}}vvtoje_\VQJG@@@CENVcit|ƒ‰‘–œŸœœ–‘Žˆ{vspjhhipu~ƒ‹”™Ÿ¤ª­²´´¶¹¼¾¾¾wzzzzzzzz}zzz}}wwtolg_\WQJEB?@CFOWaiq|„‹”—œœœ™—‘Žˆ~{spnjhhnpy‹”™¥¥­¯´´¹¼¹¼¾¾¿wwzzzzzzzzzzzzz|vtnlga]WQJG@?@CFOYclv|„‹‘•—œ™—–ˆ†€{wspjhhhpv~‰˜™¡¥§¯²´¶¹¼¼¾¾¾¿wwwzzzzzzzz}}}y|vtnlga\WQJG@@@BFOWckt|„‰•———“‘Ž†‚~yvnjjjhnsyƒ‹”œŸ¢§­²´¶·¹¼¼¼¼¾¿wzzzzzzy|zz}}}}zytnjfa^WQJG@@@CHP[ckt„‰‘–—““‘‰†~xvpkhhhjpx€‰‘™œŸ§ª­²´··¹¹¹¼¼¼¼ywzzzzz|}}}}}}}zztnnfa^WQJG@@@BHP[ckt„‰‹‘–“‘‘‰ƒyspjhhhhms{ƒ‹”™¡¡§­¯´¶¶¹¼¼¹¹¼¼½ywzyyzzz}}}}}}}yvtnjfd\WQJE@@=BENVckv|ƒ‰‹‘‘Ž‹ƒ€yvpnhhhhhpy‹‘—¡¥§¯´¶¶¹¹¹¼ºº¼¹ºzzzzzzzzz}}}}z|vtnjga\WQIG@@@CHPWcjs{ƒ‡‰‹Ž‹‰ƒ€{xpnkhhhjms~†Ž”œŸ¤§¬¯´¶¹¹¹¹¹ººº¶¶zyyzzz}||}}}}z|vtnjgaYVQMD@<=BKNWcktyƒ‰‰‰‰ƒ{ysnkhfcijs{ƒ‹‘™œ¡§¬¯´¶¶¶ºº¹¹¹¶º·¶zyy|y||||}}}}}}|vtnjga\WQMD@<@BIQXbjsy„‡‡†{yspkjhfhhox‚ˆŽ–™¡¥©®´´¶¶¹¹¹¹¹¹¶··¶wyz}}|||}}}}}}}|vtnjga^WQMD@@@CIQXcjsy~~yxpmjhhhhks{ƒŽ”˜Ÿ¤§­®¶¶¶¹¹¹¹ºº¹¶´´´yz}}}||}}}}}}vtolfa\WQJDB=@CIQYahpw{{~~{xvpnjhffhhpyƒŠ“—œ¡§¬¯³¶¹¹¹¹¹¹º¹¶¶´´´zzzy}||}}}}}}}}}vtnnfaYWQJGB==BENX`hpvvy{yyxspphhfffhkt{ƒ‹”œŸ¤§®²³¶¶¹¹¹¹¹¶¶¶¶¶²²zzzy}||}}}}}}}}|vvqnfaYWQJD@<=BJRX`fmppvvvvsrojhffffhpyƒ‹”˜œ¡¥©®´¶¶¶¹¹¹¹¹·¶¶²²²¯zzz}}||}}}}}}}}zytrlfa\WQLC@<@CENX`ejmnopppoomhfebfhnx€‰‘”œ¡¥§¯´¶¶¶¶¶¹º¹¹¶¶¶²¯¯­zz}}}}}}}}}}}}ztrlfa\WQLC@?@AFNV^bfjjmmmmmjhhfbbhhp{ƒ‹”˜œ¡§¬¯´¶¹¹¶¶¹¹¹¶¶¶¶²²¯­zz}}}}}}}}}}~~}vtrlfa^WQID@@@AENVX^bffhhhhhffb``bhny~†‘™œž§©¯²³¶¹¹¹¹¹¹¹¹¶¶¶²¯¯­yz}}}}}}}}}}vtrlfa\WQLD@@@AEKQXZ`bbbeffeeb```bhpy‚‹”™Ÿ¤§­±¶¶¶¹¹¹¹¹¹º¶·´´²²¯­|z}}}}}}yvqnga^YQMDB==@EINVX[Z^^^^bbb^Z[^bhp{†Ž–œŸ¥©¯³¶¶¸¹¹¼¹¹¹·¶·´´²¯­ªyz}}}}}}}}}zwslia\VQLD@<==AEJPRXXXXXZ[^ZZZXZbjv~ˆ™¡¤©®²¶¶¹¹¹¹¹¹¹¹¹¶´´²²­­ªzz}}}}}}}yvqlja\WQJG@<;;=BHPRRSRRVVVXVVVV[bjv‚Ž–™ž¤©®´¶¶¹¹¹¹¹¼¹¹¹¶´´²­­ª¨zz}}}}}~~|vqnfaYXQLD@:;;=BDHLMMMPRRRVSSSU]bjxƒŽ–œ¡§¬²¶¶¶¶¶¹¹¹¼¹¹¹¹´´²­­ª¨}}}}}}}}}‚|vsnfa_YQLD@:::;;@DEJJJLMPPPPPPRZepzƒŽ–œ¡§®²¶¶¹¹¹¹¹¹¹¹¹¶¶´²¯­­ª¨}}}}}}|vsnfa\YQLD@:::;;=ABEEEHJJJKKPPR[goz‚Ž–¡§®²¶¹¹¹¹¹¹¹¹¹¹¶¶´²¯­­ª¨}}}}}}}~|vsnia^WQMD@::588:=@@AABEEEHHIKRZemxƒŽ–œ¡§®²´¶¶¹¹¹¶¹¹¹¹¹¶´²²­­ª¨}}}}}}}‚}|vsnia^WQJG?:55558::=@@BBCA@EEJRZbmxƒ‹“œ¤©¬¯´¶¶¹¹¹¹¹¹¹¹º¶´´²­­ª¨}}}}}}‚|ysnja^WQJG?:55225::::<@@@@=@DJR]bjv‚Ž–œŸ¦©¯²´¶¶¹¹¹¹¹¹¹¹¹´´²¯­ª¨}}}}}}‚‚‚‚|vsnjf^YQMG?971221577:;;=====DJR]bjv~Š“œ¡¤©®²¶¶¹¹·¹¹¶¹¹¹¹´²²¯­ª¨}}}}‚‚|ysnia^XTMD@7412/11558:;=====DMRZbjs~ˆ˜ž¤©¬²³¹¹¹¹¹¹¹¹¹¹·´²²¯­ª¨}}}}}‚}vsnia_YQMD@71/---12588;===;@EKPX`go~†—œ¡§¬®³¶¹¹¹¹¹¹¹¹··´²¯­­­¨}}}}}~~}vsnja_YRMD?:11-*--1588;=@@@CHKPX`hn{‰‘™Ÿ¥©­²´·¹¹¹¹¹¹¹´´´´¯¯¯­¨}}}}}~~ysnje_WTMD<:41-*--15:;=@CEDEHKQX^bjs~†˜œ¤©¬®²´¹¹¹¹¹··¹¹´´²¯­­¨}}}}‚‚‚€‚‚}ytqjd^YTMD=84/**-/27==@CEHHMKKQX^bir{ƒŽ–œ¡§©¬²´´¹¹¹¹¹¹··´´²¯­­¨}}}}}}ytqid^YTMD=84/-*/25:@BEHJMPMMPVX^bgov~ˆ‘—ž¥©¬²´´¹¹··¹¹··´´²²­­¨}}}}~ytnld_YTOG@84/-*/58=BELLRRRRRRUZ`bfmv~†Ž–œ¡¥©¬²´´¹··¹···´´²¯­­¨}}}yvnld_YTMG?84/--27=CHMRVXXZXVVXZ`bfjpy‰‘™Ÿ¥©¬±´·¹¹¹¹···´´²­­­ª}}}}‚‚yvnje_YUOG<:51-17;BHORXZ````ZZ]^`behmv~†˜ž¡©¬®²³·¹¹¹¹··´´²¯­ªª}|yrje_YUOG@:5202;@HNRZ]bbgfbb```bcffjpy‹–™Ÿ¥©®²´´¹¹¹¹··´´²­­ª¨}}}yvrle_YUMD@:6527=EJRZ]bhjjjjhfebbfffjmwˆ™ž¤§¬²´´········²­­­¨}}}|wrlg_ZWMJ@;855;BHPX`gjjoroomjheffffhms{ƒŽ“œ¤¦¬²´´´¸¹¹º¹´´²¯­­¨}}}|wrlea]URJ@=;;;=ENV^ejosxxxxvsmjjfhhhhpx€ˆ’˜Ÿ¤©¬²´´·¹¹¹¹´´²¯­­¨}„„}wrlfb]URJB=;;=CJRZbjpv{€€~~~zvpmhhhfhmv~†–ž¤§¬²´´····´´´±¯¯­ª~‚‚‚‚€}wtneb]WPHB@@=@ENX^fnv~€ƒƒ‚‚€{xpmhhfhmpyƒ‹‘™¡¥©¬²´¹····´´±¯¯ª¨}‚‚‚‚}ztmge]XRJC@@@CHRZbjv~‚ˆˆ‰‹Š‰ˆ€zsohhhhhmx€‰‘™ž¡§¬¯´´·¸···´²¯­­¨}€‚‚‚……‚‚}zumgb_XRJHB@ACKV^fnvƒˆ‹Ž‹ˆ€ypihfhhns{ƒ‹“œŸ§¬¬²´··¸¸¸´²¯­­¨}‚……………‚~xuohb`XRJHBCCHMX`js~†ˆ“–––“‹ƒ{vnhfhjkpy~†‘™Ÿ¥©­¯´····¹´´¯­­ª‚‚……‚……‚€}uoje`ZSNHECEJP[cnw€†Ž’™™™™™“ˆypmjhjjnt{ƒ‹“¡§ª¬´·····´´¯­­­}‚‚‚‚……‚‚}upjg`ZSMKEEHKS`hp{†‹‘–œžŸŸœ™“‹ƒ{spjhhhnpx‹‘™Ÿ¥§­²´····´±¯¯­­}€€‚‚…………†…‚~ypjh`[VMIIHKPX`hv†Ž”™žŸ¡ŸŸœ–‘†€ysmhhhknv~†Ž—ž¤§¬¯³·º´·´±¯¯­­‚‚………‡††€~ysjh`[VPKIIKQYbjvˆ–œŸ¡¥¥¡ž™“‹ƒ{snkjjjks{ƒ‹“œ¡§¬®±·¹¹·´±¯­­ª}‚‚‚‚‡‡ˆˆ††€~ysnha^VQKKKKS[enyƒ‰‘—œŸ¥¥¥¤Ÿœ—‘‰ysphhkkpy‰‘™Ÿ¥©­¯´··¸´±¯¯­ª‚‚ˆˆ†ˆ††€€yunha^YQKKKMS[fp{†‹”™ž¥§©§¥¤™“‹ƒ{xpmhhhps~†Ž–¡¥ª²²´··´²¯­­ª}‚‚‚……‡ˆˆ‰†ƒ{upha^WQNKKPV^fs~†Ž–œŸ¥§©©¥¥Ÿ™–ˆ€ysmhhhkqy‰‘šŸ¥§¬²´´¸´´¯­­­‚‚‚…ˆˆˆˆ‰ˆ†{ypjc^[SMKPQV^hs~ˆ–œ¡¥§©©©§¡ž˜‘‹ƒ{spmkknpv~†Ž™Ÿ¤§¬¯´´¸´´¯¯¯­‚‚‚…ˆˆˆ‹‰ˆ„{ypjc^XSMMMPX`js~‡–¡¥©©¬©¥¥Ÿ™–‰ypmkkjps{‰“œŸ§¬­®´·´±¯¯­­}€€‚‚‚ˆˆ†‹‹Œ‰‰‡ƒ~wsjf^ZSMMMQYajv‰‘–¡¥©¬¬©©¥¡ž—‘‹ƒ{tnnnknpy‰˜Ÿ¡©­¯´´´²¯¯­ª€€€‚‚‚‚†††‹ŒŒŒ‰‡ƒwtkf`[SQPPSX`jv€‰–ž¡¥©¬¬¬¬§¤¡™“Ž‡wpnmkkns{ƒ˜¡§¬¯²´´±¯¯¯­}€€€‚‚……†ˆ‹‹ŽŽŽŒ‰ƒ|tkfa[VQPQSX`jx~‹˜œ¤§©¬±¯¬©¥¡ž–‘‰ƒyspmkkjsz‚‹’™¡§§¬¯²´±¯¯¯­€€€‚‚……†ˆŒŒ‹ŽŽŽ‰ƒ{tnfc[VSPSSX`js~‹‘–¢§©®¯¯­©©¤Ÿ™“Ž†ypnnnkpu~ˆ—œ¡§¬­¯²´¯¯¯¯~€‚‚‚‚…†ˆˆŒŒŽŽŽ‹‰„{wnhc[VSPQSX`js€‰‘–¡§ª®²²­­©¥Ÿœ™‘‰yspmmnns{ƒ‹“œ¡¥©­¯²²¯¯¯¯€€‚‚‚‚††ˆ‰ŽŽ‹‡|wnkc[VQQQSX`jv€‰“–œ¡¥©¬²²²­©¥¡ž™“‹ƒ~vpmmknpy‰‘™Ÿ¡§­¯¯¯¯¯°°~€…‚…‚‚†ˆ‰‰Œ‘‘Œ‹‡ywnjf^XSSSSX`mv‡–œ¡¥©®²²²¬¬§¥Ÿ™“†~ypnnnnpw‰Ž–¢§­®®¯¯°°°~…‚‡††ˆˆŒŒ‹‰†yvnfb^VSSSSX`hs{ƒŽ™Ÿ¥©¬¯®¯­©§¥Ÿ™“Ž†~wpnkmmnv{ƒŠ’™Ÿ¥§§©ª­¯¯¯€………†ˆˆŒŒŒŽŽ‹‡ƒ|wsjf`YVSQSSV[gowˆŽ–œ¡¥©©¬­¬©¥¤ž™“‹ƒ~vphhhjmpyˆ—™Ÿ¥§§§ª­¯¯‚‚‚‚…†ˆ‰ŒŒŽŽŒŒ‹‰†ƒyvnfa^YQPMPSS[bjv~ƒ‹‘™¡¥©§©§¤¡Ÿœ˜‡‚zsmhffhinsy€ˆ‘–Ÿ¢¥§§ª¯¯‚‚‚‚ƒ†ˆŒŒŒŽŒŒ‰‰„wpkf^[VPMMMMRX^foy€ˆŽ–œŸ¡¥¥¥¤¤ŸŸ™“Ž†€zpjfeccfimsy‹“šŸ¡¡¢¥¨ª¯‚‚‚†††ˆŒŒŒŽ‹‹ŒŠ‰‡{wnha^XSMMIIKPSZbmv~†Ž—œŸ¡¡¡¡ž™–‘‹ƒ€xnheb``cfhnv~ƒ‹—™Ÿ¢¢¨ªª‚‚…††ˆ‹ŒŒŽŽŒŒŒ‰‡„yvnf`[VRMJEEHKPZ^hsz€ˆ–™œžŸŸŸœ™“‘‹ƒ{snhc^^^^cfipyƒ‹“™Ÿ¢§¨¨‚‚‚†ˆ‰Œ‹‹ŒŒŠ‡‡‚yskf^XSMKEECCHNS[fnv~†Ž‘–˜™œœ™™™““‹ˆysjhb^[[^^`fmv‰“™š¢¢§¨‚‚††ˆŒŒ‹‹ŠŠ‡‡„wpic[VQMECCBBEKPX`jpyˆŽ‘–˜™™™–““‹ƒ~wphe^[XXYY^`hp|„‹‘—™šž ¢¨‚ƒˆ‡‰ŒŒŽŠŠ‡‡‚zwnfc[VNKE>==@CHNV^fmv~†‰Ž‘“““““‘‘‹‰ƒ{tkf`^XVVXX[^fny‚‰”˜ššž£¨ƒ†‡ŒŒŽŽŽŒ‰‡„zwkf_YSKCA=;;=@EKS[cjs{ƒ‡‹Ž‹‰†yphc^[XVVVVY[cnw„Œ‘—”˜ž¢¦ˆ‰‰ŒŒ‘‘‘Œ‰‡„wqkc^VMHC@=;;==AIQX`hpw{†‰ŽŽŽ‹‹‹‰‰ƒyphb^[VVVSVX[`kp‡‹‘”˜š¢¢†‰‰ŒŒ‘”‘ŒŒ‡„wqkc^VMHC==88==CINV`fkv{‰‰‰‰‹‰‰‰‡ƒ|wpha^[XVVVVY^ahs‡‰‘”˜ ¢ˆ‰ŒŒ‘‘”•”‘‹‡„€|ytkf`YQKECAA@@BEIQVbhnw{‰‰‰‰‰‰‰‰†ƒ|wnfc`^^[XXZ^^ciy‡‰’”˜š  ˆ‰Œ‘‘‘——””Œ‡‡‚|wskf`[SMKKKKKKKQY[cjs{†ˆ‹‰‰‰‰‰‡‡ƒyskfffa__``efip|„‡Š”—˜ž ¢ŒŒŒ”•————••‰‡‡‚~wpmhb]ZVVVVVVX[`cjpw~†‡‰Ž‹‹‹‰‰‰ƒwppjnkiijkppty‰Œ””—˜ž £ŒŽ”——•š——••‰‡‡yvpnffb`bbbb``ejmpw{†‡‰Ž‘““‘‘ŽŽ‹‰‰ƒyysuussyyy{„‡Œ‘’——˜šž ¢‰•——šš™™˜•‘Œ‰‰ƒyyvnkjjjjhhhhmsvx{ƒ‰‰Ž‘“–––““‘‘Ž‹‰†ƒ~~~†‰‰“——˜˜šžž¢¦Œ‘••——ššš™™—•“‘Œ‰‡ƒyyvvvvvvvvvxy~~†‰Œ‘—™™™™™™™”“‘Ž‰‡‡††‰‰‰‹ŽŽ‘”™š¢¢£ª”•——™šš™——””Œ‰‡~~~~~~~ƒ††‰‹‘“˜œŸŸžžŸ™™™™™“‘ŽŽ‘‘””——šŸ¡ ¢¢¢¦¨ª‘’—™™šŸšš™™—”‘‹‹‰‰ˆˆ††††††‰‹‹‹‘‘‘—™žŸŸŸŸŸŸŸŸŸ™––““–––—™™™™Ÿ¡ ¢¢§¢¢§ª­‘’•˜šššžž  ŸŸŸšš™—˜“‘‘‘‘‹ŽŽŽŽ‹‹‘‘’“–—œŸ¡¡¢¥¤¤¥¡ŸŸŸŸ™™™œœœœŸŸŸŸŸ¢¢¢§§§§§§¨ª®••—ššš  ¢¢¢¢¢œœ——––––––––––———™™™Ÿ¥¥¥¥©©©©¥¥¥¥¢¡ŸŸŸŸ¡¡¥¤¤¥¥¥§§§­­ªªªª­®°–—™ššŸ  ¢¥¢¢¢¢¢¢¡¡ŸŸœœœœœœœœœœžžŸŸ¡¡¥¥§©©©©©©©¥§§§¥¥¥¥§§¥¥¥©©©©©­­¯¯¯¯¯¯°°µ——ššŸ¢ ¢¥¥§§¥¥¥¥¥¥¢¢¡¡¡¡¡¡¡¡¡¡¡¡¡¡¡¡¢¥§§§§§©©©©©¬©§§©©©©©©©ªªª©­­¯¯¯²²´´´´²²µµ¸™—Ÿ ¢¢¥¥§§§§§§¥§§¥¥¥¥¥¥¥§§§§¥¥§§§§¥§§§©©¬¬­­®®¬¬¬¬®®­­¬¬®¯¯¯®±²²²´¶¶¹¹¹¹´´µµ¸™šŸŸ ¢¢¥¥§¨¨§§§§ª§§§§§§§¨¨§§§§©©§§§§§©§§¬¬¬¬­¯®®­­®®®¯¯¯¯¯¯´²²²´´¶¶¶¹¹¼¼¼¼º´µµ¸